!!!!SEGMENT: 023-1a-Sm.krn
!!!COM: Chopin, Fryderyk
!!!OTL: Ballade.
!!!OPS: Op. 23
!!!PTL: Ballade pour Le Piano
!!!PPR: M. Schlesinger
!!!PPP: Paris
!!!NIFC-rismID: 1001067400
!!!NIFC-shelfmark: PL-Wbfc 6607/n
!!!OMD: LARGO.
**kern	**kern	**dynam
*part1	*part1	*part1
*staff2	*staff1	*
*clefF4	*clefG2	*
*k[b-e-]	*k[b-e-]	*
*g:	*g:	*
*M4/4	*M4/4	*
*met(c)	*met(c)	*
=1	=1	=1
[<2CC	(>[>2C<	f
!	!LO:TX:b:t=pesante.	!
8CCL]	8C<L]	.
8EE-	8E-<	.
8AA-X	8A-<X	.
8BB-J	8B-<J	.
=2	=2	=2
8CL	8cL	.
8AA-X	8A-X	.
8E-	8e-	.
8B-J	8b-J	.
8cL	8ccL/	.
8A-X	8a-X	.
8e->	8ee-	.
8b->J	8bb-J	.
=3	=3	=3
*	*	*^
8cc>L	8cccL	>	>
8g>	8gg	.	.
8b->	8bb-	.	.
8a-X>J	8aa-XJ	.	.
4g>	4gg	.	.
8f#X>\	8ff#X)/	.	.
.	.	]	.
8rf>	8ree)	.	.
*	*	*v	*v
!!LO:LB:g=original
=4	=4	=4
8re>	8rff	.
8f#X>L	(>8ff#XL	p
8g>	8gg	.
8f#>J	8ff#J	.
8e#X>L	8ee#XL	.
8f#>	8ff#	.
*Xtuplet	*	*
12a->	12aa-	.
12g>	12gg	.
12e-X>J	12ee-XJ	.
=5	=5	=5
8.e->L	8.ee-L	.
16d>k	16ddk	.
12f>	12ff	.
12e->	12ee-	.
12d>J	12ddJ	.
4d>	4dd)	.
4rD	4rb	.
=6	=6	=6
*	*	*^
2r	2r	.	.
!	!	!LO:HP:vg=1	!
(>2c 2G 2E-	(>4.cc/	>	.
.	.	.	<
.	.	]	.
.	8g	.	.
*	*	*v	*v
=7	=7	=7
!LO:S:s=1:note:problem:note-level slur	!	!
1e-:) 1G 1D	[>1b-)	[
=8|!	=8|!	=8|!
*M6/4	*M6/4	*
*	*	*
*	*^	*
*	*	*^	*
*	*	*	*^	*
!	!LO:TX:a:B:t=Moderato.	!	!	!	!
2r	2.b-/]	2.ryy	2.ryy	2.ryy	[
*ped	*	*	*	*	*
4ryy	.	.	.	.	.
4DD'	(>8cr	8ryy	4ryy	4.ryy	.
!	!LO:N:vis=2	!	!	!	!
.	8cL\	2c/	.	.	>
4r	8d	.	4.d/	.	]
.	8f#X	.	.	4f#X/	.
4r	8b-	.	.	.	.
*Xped	*	*	*	*	*
.	8aJ	8ryy	8ryy	8ryy	.
*	*	*	*v	*v	*
*	*	*v	*v	*
!!LO:LB:g=original
=9	=9	=9	=9
4r	2.g)	4rB	.
4GG'	.	(>4d'> 4B-	.
4GG'	.	4d'> 4B-)	.
4r	(>2.dd	4rc	.
4B-'	.	(>4g'> 4d	.
4B-'	.	4g'> 4d)	.
=10	=10	=10	=10
*	*	*^	*
*	*	*	*^	*
4r	2.cc/)	4r	2.ryy	2.ryy	.
4A'	.	(>4g'> 4e- 4c	.	.	.
4A'	.	4g'> 4e- 4c)	.	.	.
4r	8rc	8ryy	4ryy	4.ryy	.
!	!LO:N:vis=2	!	!	!	!
.	8cL\	(>2c/	.	.	>
(<4DD'	8d	.	4.d/	.	]
.	8f#X	.	.	4f#X/	.
4DD')	8b-	.	.	.	.
.	8aJ	8ryy	8ryy	8ryy	.
*	*	*	*v	*v	*
*	*	*v	*v	*
=11	=11	=11	=11
4r	2g)	4rB	.
4GG'	.	(>4d'> 4B-	.
4GG'	4ryy	4d'> 4B-)\	.
4r	(>2en	4rF	.
4AA'	.	(>4c#X'> 4A 4G	.
4AA'	4ryy	4c#'> 4A 4G)\	.
=12	=12	=12	=12
*	*	*^	*
*	*	*	*^	*
4r	2f#X)	4r	2.ryy	2.ryy	.
4DD'	.	(>4d'>\ 4A 4F#X	.	.	.
4DD'	4ryy	4d'>\ 4A 4F#)	.	.	.
4r	(>8rc	8ryy	4ryy	4.ryy	.
!	!LO:N:vis=2	!	!	!	!
.	8cL\	2c/	.	.	>
(>4D'	8d	.	4.d/	.	]
.	8f#X	.	.	4f#X/	.
4D')	8b-	.	.	.	.
.	8aJ	8ryy	8ryy	8ryy	.
*	*	*	*v	*v	*
*	*	*v	*v	*
!!LO:LB:g=original
=13	=13	=13	=13
4r	2.g)	4rA	.
4GG'	.	(>4d'> 4B-	.
4GG'	.	4d'> 4B-)	.
4r	(>2.gg	4re	.
4en'	.	(>4dd-X'> 4b- 4g	.
4e'	.	4dd-'> 4b- 4g)	.
=14	=14	=14	=14
*	*	*^	*
4r	2.ff)	2.ryy	4r	.
4f'	.	.	(>4cc'>\ 4b-	.
4f'	.	.	4cc'>\ 4b-)	.
!	!LO:N:vis=2	!	!	!
4r	(>8e-L\	2.e-/	4ryy	>
.	8f	.	.	]
!	!LO:N:vis=2	!	!	!
(<4FF'	8a	.	2a/	.
.	8ee-	.	.	.
4FF')	8dd	.	.	.
.	16ree	.	.	.
.	16cc#XJk	.	.	.
*	*	*v	*v	*
=15	=15	=15	=15
4r	(>2cc#X)	4re	.
4BB-'	.	(>4a'> 4f 4e-	.
4BB-'	4ryy	4a'> 4f 4e-)\	.
4r	2.dd	4re	.
4B-'	.	(>4b-'> 4f 4d	.
4B-'	.	4b-'> 4f 4d)	.
=16	=16	=16	=16
*	*	*^	*
*	*	*	*^	*
4r	2.cc)	4r	2.ryy	2.ryy	.
4A'	.	(>4g'>\ 4e-	.	.	.
4A'	.	4g'>\ 4e-)	.	.	.
4r	8r	8ryy	4ryy	4.ryy	.
!	!LO:N:vis=2	!	!	!	!
.	(>8cL\	2c\	.	.	>
(<4DD'	8d	.	4.d/	.	]
.	8f#X	.	.	4f#X/	.
4DD')	8b-	.	.	.	.
.	8aJ	8ryy	8ryy	8ryy	.
*	*	*	*v	*v	*
*	*	*v	*v	*
=17	=17	=17	=17
4r	2.g)	4rB	.
4GG'	.	(>4d'> 4B-	.
4GG'	.	4d'> 4B-)	.
4r	(>2.dd	4rc	.
4B-'	.	(>4g'> 4d	.
4B-'	.	4g'> 4d)	.
!!LO:LB:g=original
=18	=18	=18	=18
*	*	*^	*
*	*	*	*^	*
4r	2.cc)	4r	2.ryy	2.ryy	.
4A'	.	(>4g'>\ 4e- 4c	.	.	.
4A'	.	4g'> 4e- 4c)	.	.	.
4r	8rd	8ryy	4ryy	4.ryy	.
!	!LO:N:vis=2	!	!	!	!
.	(>8cL\	2c\	.	.	.
(<4DD'	8d	.	4.d/	.	.
.	8f#X	.	.	4f#X/	.
4DD')	8b-	.	.	.	.
.	8aJ	8ryy	8ryy	8ryy	.
*	*	*	*v	*v	*
*	*	*v	*v	*
=19	=19	=19	=19
4r	2.g)	4rA	.
4GG'	.	(>4d'> 4B-	.
4GG'	.	4d'> 4B-)	.
4r	(>2.en	4rG	.
4AA'	.	(>4c#X'> 4A 4G	.
4AA'	.	4c#'> 4A 4G)	.
=20	=20	=20	=20
*	*	*^	*
*	*	*	*^	*
4r	2.f#X)	4r	2.ryy	2.ryy	.
4DD'	.	(>4d'>\ 4A 4F#X	.	.	.
4DD'	.	4d'>\ 4A 4F#)	.	.	.
4r	8rd	8ryy	4ryy	4.ryy	.
!	!LO:N:vis=2	!	!	!	!
.	(>8cL\	2c\	.	.	.
(>4D'>	8d	.	4.d/	.	.
.	8f#X	.	.	4f#X/	.
4D'>)	8b-	.	.	.	.
.	8aJ	8ryy	8ryy	8ryy	.
*	*	*	*v	*v	*
*	*	*v	*v	*
=21	=21	=21	=21
4r	2.g)	4rA	.
4G'	.	(>4f'> 4d 4Bn	.
4G'	.	4f'> 4d 4B)	.
4r	(>2.gg	4rd	.
4GG'	.	(>4dd'> 4bn 4g 4f	.
4GG'	.	4dd'> 4b 4g 4f)	.
=22	=22	=22	=22
*^	*	*	*
4r	4ryy	2.gg	4rg	.
2C/	4CC'>	.	(>4ee-'> 4cc 4g	.
.	4G'>	.	4ee-'> 4cc 4g)	.
4r	4ryy	2.dd	4rg	.
2D/	4DD'>	.	(>4g'> 4d	.
.	4G'>	.	4g'> 4d)	.
!!LO:PB:g=original
=23	=23	=23	=23	=23
4r	4ryy	2.cc	4rc	.
2E-/	4EE-	.	(>4g'> 4c	.
.	4G'>	.	4g'> 4c)	.
4r	4ryy	2.g	4rc	.
2D/	4DD	.	(>4d'> 4B-	.
.	4G'>	.	4d'> 4B-)	.
*v	*v	*	*	*
=24	=24	=24	=24
(>8BBn^<L\	(>2.gg)	4rg	.
8C	.	.	.
8D	.	(>4ee-'> 4cc 4g	.
8CJ	.	.	.
4G)	.	4ee-'> 4cc 4g)	.
(>8C#X^<L	2.dd	4rg	.
8D	.	.	.
8E-	.	(>4g'> 4d	.
8DJ	.	.	.
4G)	.	4g'> 4d)	.
=25	=25	=25	=25
(>8D^<L	2.cc	4re	.
8E-	.	.	.
8F	.	(>4g'> 4c	.
8E-J	.	.	.
4G)	.	4g'> 4c)	.
!	!	!	!LO:HP:b=2
.	.	.	<
16qqD#X/LL	.	.	.
16qqEn/JJ	.	.	.
2.Enyt	2.g	4rB	.
.	.	(>4c#X'> 4B-	.
.	.	4c#'> 4B-)	.
16qqD#/LL	.	.	[
16qqE/JJ	.	.	.
=26	=26	=26	=26
[2.F	2.f)	4rB	.
.	.	(>4d'> 4B-	.
.	.	4d'> 4B-)	.
(>4F]	(>2.dd	4rB	.
4En\ 4EEn	.	(>4b-'> 4f 4d	.
4F\ 4FF	.	4b-'> 4f 4d)	.
=27	=27	=27	=27
!LO:N:vis=2	!	!	!
[2.F#X\ [2.FF#X)	4dd	4an 4e-	.
.	8qdd/	.	.
.	4cc	4a 4e-	.
.	.	.	<
.	4bn	4a 4e-	.
(>4F#]\ 4FF#]	4cc	4a 4e-	.
4E#\ 4EE#	4dd	4a 4e-	.
4F#\ 4FF#	4ee-	4a 4e-	.
.	.	.	[
!!LO:LB:g=original
=28	=28	=28	=28
!LO:TX:b:t=P:brak zakończenia łuku:problem	!	!	!
1.G 1.GG)	2.ee-	4re	.
.	.	4b- 4e-	.
.	.	4b- 4e-	.
.	2.dd	4b- 4d	.
.	.	4b- 4d	.
.	.	4b- 4d)	.
=29	=29	=29	=29
1.D 1.DD	(>4rdd	4f#X 4c	.
.	8qb-/	.	.
.	4a	4f# 4c	.
.	4g#X	4f# 4c	.
.	.	.	<
.	4a	4f# 4c	.
.	4b-	4f# 4c	.
.	4cc	4f# 4c	.
.	.	.	[
=30	=30	=30	=30
1.E- 1.EE-	2.cc	4re	.
.	.	.	>
.	.	4g 4c	.
.	.	4g 4c	.
.	2.b-	4g 4B-	.
.	.	4g 4B-	]
.	.	4g 4B-	.
=31	=31	=31	=31
!LO:S:s=1:note:problem:note-level slur	!	!	!
(>2.C (<2.CC	2.a)	4g 4e-	.
.	.	4g 4e-	.
.	.	4g 4e-	.
!	!LO:TX:a:B:t=ritenuto.	!	!
!LO:S:s=1:note:problem:note-level slur	!	!	!
2.D) 2.DD)	[2a	4f#X 4d	.
.	.	4f# 4d	<
.	8aL]	4f# 4d	.
.	8aJ	.	.
.	.	.	[
=32	=32	=32	=32
*ped	*	*	*
(>4C#X 4CC#X	[2.a:	4en: 4A	.
4en' 4A 4En	.	4ryy	.
4e' 4A 4E	.	4ryy	.
4e' 4A 4E	2a]	2.ryy	.
4e' 4A 4E	.	.	.
*Xped	*	*	*
!	!LO:TX:t=P:brak początku ligatury:problem	!	!
4e' 4A 4E)	[>4a^>	.	.
*	*v	*v	*
!!LO:LB:g=original
=33	=33	=33
*ped	*	*
(>4Cn 4CCn	(>16aLL]\	.
.	16b-	.
.	16a	.
.	16g#XJJ	.
4f 4e-X 4A 4F	16aLL	.
.	16gg	.
.	16een	.
.	16ffJJ	.
4f 4e- 4A 4F	16ffLL	.
.	16ggg	.
.	16fff	.
.	16eee-JJ	.
*	*Xtuplet	*
*	*rscale:2	*
*	*cue	*
4f 4e- 4A 4F	24eee-XL\	.
.	24ccc	.
.	24aa	.
.	24bb-	.
.	24ddd	.
.	24ccc	.
4f 4e- 4A 4F	24bb-	.
.	24gg	.
.	24ff	.
.	24dd	.
.	24ee-X	.
.	24een	.
4f 4e- 4A 4F)	24ff	.
.	24ff#X	.
.	24aa	.
.	24gg	.
.	24ffn	.
*Xped	*	*
.	24ee-XJ)	.
*	*Xcue	*
*	*rscale:1	*
*	*tuplet	*
=34	=34	=34
*ped	*	*
4BB- 4BBB-	8cc#X	.
.	8r	.
4B- 4F 4D	[2dd^	.
*Xped	*	*
4d 4B- 4F	.	.
*ped	*	*
4EE-	(>4dd]	.
4c 4G 4E-	4cc#	.
*Xped	*	*
4e- 4c 4G	4g\	.
=35	=35	=35
*^	*	*
*ped	*	*	*
2ryy	(>4DD/	2.b-	.
.	4e- 4B- 4G	.	.
2d 2B-	4G	.	.
*Xped	*	*	*
.	2.D	2.f#X	.
4c#X 4B-	.	.	.
4cn 4A)	.	.	.
=36	=36	=36	=36
*ped	*	*	*
4GG'	4ryy	4g)\	.
.	.	.	p
(>4f	2B- 2G	(>8bb-L 8b-	.
.	.	8dd	.
*Xped	*	*	*
4e-)	.	8ff	.
.	.	[8ee-J	.
*ped	*	*	*
4FF#X'\	4ryy	4ee-])	.
(>4e-	2A 2F#X	(>8aaL 8a	.
.	.	8cc#X	.
4d)	.	8ee-	.
*Xped	*	*	*
.	.	8ddJ	.
!!LO:LB:g=original
=37	=37	=37	=37
*ped	*	*	*
(>4GG'	4ryy	4dd)	.
4f	2B- 2G	(>8bb-L 8b-	.
.	.	8dd	.
*Xped	*	*	*
4e-)	.	8ff	.
.	.	[8ee-J	.
*ped	*	*	*
(>4FFn'	4ryy	4ee-])	.
4e-	2Bn 2A-X 2F	8aa-XL 8a-X	.
.	.	8cc#X	.
4d)	.	8ee-	.
*Xped	*	*	*
.	.	[8ddJ	.
=38	=38	=38	=38
*ped	*	*	*
(>4EE-'	4ryy	4dd]	.
4d	2G 2E-	8ggL 8g	.
.	.	8bn	.
4c)	.	8dd	.
*Xped	*	*	*
.	.	[8ccJ	.
*ped	*	*	*
(>4CC'	4ryy	4cc]	.
4B-	2E-	(>8ccL\ 8c	.
.	.	8g#X	.
4A)	.	8b-X	.
*Xped	*	*	*
.	.	[8aJ)	.
=39	=39	=39	=39
*	*	*^	*
*ped	*	*	*	*
(>4DD'	4ryy	2.ryy	4a]\	.
4G\	2c 2D	.	8ee-L 8e-	.
.	.	.	8bn	.
*Xped	*	*	*	*
4F#X)\	.	.	8dd	.
.	.	.	[8ccJ	.
*ped	*	*	*	*
(>4DD'	2.ryy	4ryy	4cc]	<
4A	.	(>4g	8e-L	.
.	.	.	8d	.
4D)	.	4a 4f#	8c#	.
*Xped	*	*	*	*
.	.	.	8cnJ	.
.	.	.	.	[
*	*	*v	*v	*
=40	=40	=40	=40
*ped	*	*	*
4G' 4GG	4ryy	4b- 4g 4B-)	.
!	!	!LO:TX:a:B:t=agitato.	!
.	.	.	f
!	!	!LO:N:vis=2	!
(>4f	2G	(>8bb-^<L 8b-	.
.	.	8dd	.
*Xped	*	*	*
4e- 4B-)	.	8ff	.
.	.	8ee-J)	.
*ped	*	*	*
(>4F#X' 4FF#X	4ryy	4r	.
!	!	!LO:N:vis=2	!
4e-	2F#	(>8aa^<L 8a	.
.	.	8cc#X	.
4d 4A)	.	8ee-	.
*Xped	*	*	*
.	.	8ddJ)	.
!!LO:LB:g=original
=41	=41	=41	=41
*ped	*	*	*
(>4G' 4GG	4ryy	4r	.
!	!	!LO:N:vis=2	!
4f	2G	(>8bb-^<L 8b-	.
.	.	8dd	.
4e- 4B-)	.	8ff	.
*Xped	*	*	*
.	.	8ee-J)	.
*ped	*	*	*
4Fn' 4FFn	4ryy	4r	.
!	!	!LO:N:vis=2	!
(>4e-	2F	(>8aa-X^<L 8a-X	.
.	.	8cc#X	.
4d 4Bn 4A-)	.	8ee-	.
*Xped	*	*	*
.	.	8ddJ)	.
=42	=42	=42	=42
*ped	*	*	*
(>4E-' 4EE-	4ryy	4r	.
!	!	!LO:N:vis=2	!
4d	2E-	(>8gg^<L 8g	.
.	.	8bn	.
*Xped	*	*	*
4c 4G)	.	8dd	.
.	.	8ccJ)	.
*ped	*	*	*
(>4C' 4CC	4ryy	4r	.
!	!	!LO:N:vis=2	!
4B-	2C	(>8ccL\ 8c	.
.	.	8g#X	.
4A 4E-)	.	8b-X	.
*Xped	*	*	*
.	.	8aJ)	.
*v	*v	*	*
=43	=43	=43
*ped	*	*
(>4DD'	4r	.
!	!LO:N:vis=2	!
4G 4AA	(<8ee-^L/ 8e-	.
.	8bn	.
*Xped	*	*
4F#X 4C)	8dd	.
.	8ccJ)	.
4DD\	4r	.
!	!LO:N:vis=2	!
4E-\ 4AA	(<8f#X^<L 8F#X	.
.	8c#X	.
[4D\ 4C	8e-	.
.	8dJ	.
=44	=44	=44
*^	*	*
4D]	4GG	4g 4B-)	.
2.ryy	4GG 4GGG	(>8c^L 8G<	.
.	.	8B-	.
.	4rD	8A	.
.	.	8G<J	.
.	4D 4GG	4g 4B-)	.
8E-L\	2GG	(>8c^L 8G<	.
8DJ	.	8B-	.
4ryy	.	8A	.
.	.	8G<J	.
!!LO:PB:g=original
=45	=45	=45	=45
!	!	!LO:TX:a:B:t=sempre piu mosso.	!
(>4r	[2.E- [2.C [2.GG	8fL	.
.	.	8c	.
[2A^	.	8e-	.
.	.	8F#X	.
.	.	8c	.
.	.	8e-J	.
4A]\	4E-] 4C] 4GG]	8f#XL/	.
.	.	8cc	.
2ryy	4G\ 4GG	8ffn	.
.	.	8ee-	.
.	4e- 4E-)	8dd	.
.	.	8ccJ	.
=46	=46	=46	=46
2.ryy	4d'> 4D	(>4gg/ 4b-)	.
.	2G\ 2GG	8cc^L 8g	.
.	.	8b-	.
.	.	8a	.
.	.	8gJ	.
4ryy	4d 4G	4gg/ 4b-)	.
8e->L	2G	(>8cc^L 8g	.
8d>J	.	8b-	.
4ryy	.	8a	.
.	.	8gJ)	.
=47	=47	=47	=47
4rd>	[>2.e- [>2.c 2.G	(>8ffL/	.
.	.	8cc	.
[2a>^<	.	8ee-	.
.	.	8f#X	.
.	.	8cc	.
.	.	8ee-J	.
2.ryy	(>4a>] 4e-] 4c]	8ff#XL/	.
.	.	8ccc	.
.	4g> 4G	8fffn	.
.	.	8eee-	.
!	!LO:S:s=2:note:problem:note-level slur	!	!
.	4ee-> 4e->)	8ddd	.
.	.	8cccJ)	.
*v	*v	*	*
=48	=48	=48
4dd> 4g>	4ggg/ 4bb-	.
4r	8r	.
*	*8va	*
.	(>8ccccL/ 8ggg	f
4r	8bbb-	.
.	8dddJ	.
*clefG2	*	*
(>4ee-^<\ 4a 4f#X 4e-	8bbb-L/ 8fff#X	.
.	8aaa	.
4dd	8ddd	.
.	8bb- 8ff#y	.
4d\	8aa	.
.	8ddJ	.
!!LO:LB:g=original
=49	=49	=49
*^	*	*
*ped	*	*	*
4G')	4ryy	8cccL/ 8gg	.
.	.	8bb-	.
(>4d	2d	8ddd	.
.	.	8cccc 8ggg	.
4dd\	.	8bbb-	.
*Xped	*	*	*
.	.	8dddJ	.
4ee-^<\ 4a 4f# 4e-	2.ryy	8bbb-L/ 8fff#X	.
.	.	8aaa	.
4dd	.	8ddd	.
.	.	8bb- 8ff#y	.
4d	.	8aa	.
.	.	8ddJ	.
*v	*v	*	*
=50	=50	=50
*ped	*	*
4G)	8cccL/ 8gg	.
.	8bb-	.
4r	8ddd	.
.	8cccc 8ggg	.
*clefF4	*	*
(>4D	8bbb-	.
*Xped	*	*
.	8dddJ	.
4e-^< 4A 4F 4E#	8bbb-L/ 8fff#X	.
.	8aaa	.
4d	8ddd	.
.	8bb- 8ff#y	.
4D	8aa	.
.	8ddJ	.
*	*X8va	*
=51	=51	=51
*^	*	*
!	!	!LO:TX:a:t=loco.	!
*ped	*	*	*
4ryy	4GG')\	8ccL/ 8g	.
.	.	8b-	.
2D	(>4D	8dd	.
.	.	8ccc 8gg	.
.	4d	8bb-	.
*Xped	*	*	*
.	.	8ddJ	.
2.ryy	4e-^< 4A 4F 4E#	8bb-L/ 8ff#X	.
.	.	8aa	.
.	4d	8dd	.
.	.	8b- 8f#y	.
.	4D)	8a	.
.	.	8dJ	.
*v	*v	*	*
=52	=52	=52
*ped	*	*
(>4GG	8ccL/ 8g	.
.	8b-	.
4B- 4D)	8dd	.
.	8ccc 8gg	.
4r	8bb-	.
*Xped	*	*
.	8ddJ	.
(<4C#X 4CC#X	8aaL/ 8dd	.
.	8gg	.
4D 4DD)	8b-	.
.	8ee- 8b-	.
4r	8dd	.
.	8gJ	.
!!LO:LB:g=original
=53	=53	=53
*ped	*	*
(<4GG 4GGG	8ccL 8g	.
.	8b-	.
4D)/	8d	.
.	8a 8d	.
*Xped	*	*
4r	8g	.
.	8B-J	.
(<4CC#X	8e-L 8B-	.
.	8d	.
4DD)/	8G<	.
.	8cn< 8G<	.
4rAA	8B-<	.
.	8D<J)	.
=54	=54	=54
*ped	*	*
4GG/ 4GGG	(>8c<L 8G<	.
.	8B-<	.
4rDD	8D<	.
.	8d< 8G<	.
*Xped	*	*
.	.	.
(<4CCn/	8c<	.
.	8E-<J	.
*ped	*	*
4GG/ 4GGG)	8c<L 8G<	.
.	8B-<	.
4rDD	8D<	.
.	8d< 8G<	.
*Xped	*	*
(<4CC/	8c<	.
.	8E-<J	.
=55	=55	=55
*ped	*	*
4GG/ 4GGG)	8c<L 8G<	.
.	8B-<	.
4rDD	8D<	.
.	8d< 8G<	.
8ryy	8c<	.
*Xped	*	*
.	.	.
!LO:N:vis=4	!	!
(<8CC/	8E-<J	.
*ped	*	*
4GG/ 4GGG)	8c<L 8G<	.
.	8B-<	.
4rDD	8D<	.
.	8d< 8G<	.
8ryy	8c<	.
*Xped	*	*
!LO:N:vis=4	!	!
(<8CC/	8E-<J	.
=56	=56	=56
!	!	!LO:DY:a
*ped	*	*
2.GG/ 2.GGG)	8G<L	.
.	8d	.
.	.	<
.	8B-	.
.	8d	.
.	8g	.
.	8b-J)	.
.	.	[
4r	(>8ddL	.
.	8gg	.
(>4g' 4d	8bb-	.
.	8ddd	.
*	*8va	*
4d' 4G	8ggg	.
.	8ddddJ	.
!!LO:LB:g=original
=57	=57	=57
!	!	!LO:DY:a
!LO:TX:a:t=P:brak zakończenia łuku:problem	!	!
2g 2d)	8bbb-L	.
.	8dddd	.
.	8ggg	.
!	!	!LO:HP:vg=1
.	8ddd	>
*	*X8va	*
!	!LO:TX:a:B:t=loco.	!
4r	8bb-	.
.	8ggJ	.
!!mixed beam:problem
4r	8ddL\	.
.	.	]
.	8b-\	.
4r	8g\	.
.	8d\	.
(<4DD/	8G</	.
*Xped	*	*
.	8D<J)/	.
=58	=58	=58
*ped	*	*
!!mixed beam:problem
[2.GG [2.GGG)	(>8G<L/	>
.	8d\	.
.	8B-\	]
.	8d\	.
.	8g\	.
.	8ddJ\	.
!!mixed beam:problem
2GG] 2GGG]	8b-L\	.
.	8dd\	.
.	8g\	.
.	8d\	.
(<4DD/	8B-</	.
*Xped	*	*
.	8D<J)/	.
=59	=59	=59
!!mixed beam:problem
*ped	*	*
[2.FF#X [2.FFF#X)	(>8F#X<L/	>
.	8d\	.
.	8B-\	.
.	8d\	]
.	8f#X\	.
.	8ddJ\	.
!!mixed beam:problem
2FF#] 2FFF#]	8b-L\	.
.	8dd\	.
.	8f#\	.
.	8d\	.
(<4DD	8B-</	.
*Xped	*	*
.	8D<J)/	.
=60	=60	=60
*ped	*	*
!!mixed beam:problem
2.GG 2.GGG)	(>8G<L/	.
.	8d\	.
.	8B-\	.
.	8d\	.
.	8g\	.
.	8b-J\	.
4r	8ddL	.
.	8gg	.
(>4G' 4D	8bb-	.
.	8ddd	.
*	*8va	*
4D'\ 4GG	8ggg	.
.	8ddddJ)	.
!!LO:LB:g=original
=61	=61	=61
!LO:N:vis=1	!	!
2G 2D)	8bbb-L	.
.	8dddd	.
.	8ggg	.
.	8ddd	.
*	*X8va	*
!	!LO:TX:a:B:t=loco.	!
4r	8bb-	.
.	8ggJ	.
!!mixed beam:problem
4r	8ddL\	.
.	8b-\	.
4r	8g\	.
.	8d\	.
(<4DD	8B-</	.
*Xped	*	*
.	8D<J/	.
=62	=62	=62
*ped	*	*
!!mixed beam:problem
[2.GG-X [2.GGG-X)	(>8G-X<L/	>
.	8d\	.
.	8B-\	.
.	8d\	.
.	.	]
.	8g-X\	.
.	8ddJ\	.
!!mixed beam:problem
2GG-] 2GGG-]	8b-L\	.
.	8dd\	.
.	8g-\	.
.	8d\	.
(<4DD	8B-</	.
*Xped	*	*
.	8D<J)/	.
=63	=63	=63
*^	*	*
*ped	*	*	*
!	!LO:TX:b:t=P:cała nuta zapisana na środku taktu:problem	!	!
!!mixed beam:problem
[2.FF)\	[1.FFF	(>8F<L/	>
.	.	8d\	.
.	.	8B-\	.
!	!	!LO:TX:a:B:t=calando	!
.	.	8d\	.
.	.	.	]
.	.	8f\	.
.	.	8ddJ\	.
!!mixed beam:problem
(>2FF]\	.	8b-L\	.
.	.	8dd\	.
.	.	8f\	.
.	.	8d\	.
4GG\	.	8B-</	.
*Xped	*	*	*
.	.	8C<J)/	.
*v	*v	*	*
=64	=64	=64
*ped	*	*
!	!LO:TX:a:B:t=smorz.	!
!LO:N:vis=2	!	!
!!mixed beam:problem
4AAn) 4FFF]	(>8F<L/	.
.	8c\	.
4rAA	8A</	.
.	8c\	.
4rAA	8f\	.
.	8aJ\	.
4ryy	8ccL	.
.	8ff	.
(>4f' 4c	8aa	.
.	8ccc	.
*	*8va	*
4c' 4F	8fff	.
.	8aaaJ	.
=65	=65	=65
[2.f [2.c	4ffff)	.
.	4r	.
.	4r	.
*	*X8va	*
2f] 2c]	2.ryy	.
4c 4F	.	.
!!LO:PB:g=original
=66	=66	=66
!LO:TX:a:B:t=ritenuto.	!	!
[2.f [2.c	1.rdd	.
2f] 2c]	.	.
4c 4F	.	.
=67	=67	=67
2f 2c	2r	.
4c 4F	4ryy	.
4f 4c	4r	.
4c 4F)	4r	.
*Xped	*	*
!	!LO:TX:a:B:t=sotto voce.	!
!	!LO:TX:a:B:t=Meno mosso.	!
4r	[4f^> [4c	.
=68	=68	=68
*	*^	*
*ped	*	*	*
(>4BBB-'\	(>2.f] 2.c]	2.ryy	pp
4BB-\	.	.	.
4A-X	.	.	.
*Xped	*	*	*
.	.	.	.
4F	2g	2.d	.
*ped	*	*	*
4c	.	.	.
4B-)	4g	.	.
*Xped	*	*	*
.	.	.	.
*	*v	*v	*
=69	=69	=69
*ped	*	*
(>4EE-\	2e-	.
4BB-\	.	.
4E-	4ryy	.
4G	4e-)	.
4B-	(>4.ee-	.
*Xped	*	*
4e-)	.	.
.	8dd	.
=70	=70	=70
*	*^	*
*ped	*	*	*
(>4c	2.cc 2.g	2.ryy	.
4e-	.	.	.
4F	.	.	.
4e-	2dd	2.a	.
*Xped	*	*	*
4g	.	.	.
4f)	4dd	.	.
*	*v	*v	*
!!LO:LB:g=original
=71	=71	=71
*ped	*	*
(>4BB-\	2.b-)	.
4F	.	.
4B-	.	.
*clefG2	*	*
4d\	(>2bb-	.
4f\	.	.
*Xped	*	*
4b-)	4bb-	.
=72	=72	=72
*ped	*	*
(<4c	2bb-^<	.
4e-	.	.
*Xped	*	*
4F	4aa-X)	.
4B-	(>4aa-	.
*ped	*	*
4d	4gg	.
4a-X)	4ff#X	.
*Xped	*	*
.	.	.
*clefF4	*	*
=73	=73	=73
*ped	*	*
(>4B-	2ff#X	.
4d	.	.
*Xped	*	*
4E-	2gg)	.
*ped	*	*
4A-X	.	.
4c	(>4.aa-X	.
4g)	.	.
*Xped	*	*
.	8ee-	.
=74	=74	=74
*ped	*	*
(>4A-X	2gg	.
4c	.	.
*Xped	*	*
4D	2ff)	.
*ped	*	*
4G	.	.
4Bn	(>4.gg	.
4f)	.	.
*Xped	*	*
.	8dd	.
=75	=75	=75
*ped	*	*
(>4G	4ff	.
4c	4ee-	.
*Xped	*	*
4C\	4dd	.
*ped	*	*
*	*Xtuplet	*
4F	12ccL	.
.	12dd	.
.	12ccJ	.
*	*tuplet	*
4An	8bnL	.
.	8cc	.
4e-)	8dd	.
*Xped	*	*
.	8ee-J	.
!!LO:LB:g=original
=76	=76	=76
*	*^	*
*ped	*	*	*
(>4F	(>2.f 2.cn)	2.ryy	.
*Xped	*	*	*
4A-X	.	.	.
*ped	*	*	*
4BB-\	.	.	.
4A-	2g	2.d	.
4c	.	.	.
*Xped	*	*	*
4B-)	4g)	.	.
*	*v	*v	*
=77	=77	=77
*ped	*	*
(>4EE-\	[2e-	.
4BB-\	.	.
4E-	4e-]	.
4G	(>4.ee-	.
4B-	.	.
.	4ryy	.
*Xped	*	*
4e-)	.	.
.	8dd	.
=78	=78	=78
*	*^	*
*ped	*	*	*
(>4c	2.cc\ 2.g)	2.ryy	.
*Xped	*	*	*
4e-	.	.	.
*ped	*	*	*
4F	.	.	.
4e-	(>2dd	2a	.
4g	.	.	.
*Xped	*	*	*
4f)	4dd/	4ryy	.
*	*v	*v	*
=79	=79	=79
*ped	*	*
(>4BB-\	2.b-)	.
4F	.	.
4B-	.	.
*clefG2	*	*
4d\	(>2bb-^<	.
4f\	.	.
4b-)	4bb-	.
*Xped	*	*
.	.	.
*clefF4	*	*
=80	=80	=80
*^	*	*
*ped	*	*	*
(>4CC	2.ryy	2.bb-	.
4en	.	.	.
*Xped	*	*	*
.	.	.	.
4B-	.	.	.
*ped	*	*	*
4G\	2.G/	2cc)	.
4e\	.	.	.
4B-)\	.	(>4dd	.
*Xped	*	*	*
.	.	.	.
!!LO:LB:g=original
=81	=81	=81	=81
*ped	*	*	*
(>4F\	2.F/	12ee-L	.
.	.	12ff	.
.	.	12ee-J	.
4e-X\	.	4dd	.
*Xped	*	*	*
4A)\	.	4ee-	.
*ped	*	*	*
(>4BB-	2.ryy	(>4gg)	.
4d\	.	[4gg^	.
4A-X)\	.	12ggL]	.
*Xped	*	*	*
.	.	12ff	.
.	.	12ee-J	.
*v	*v	*	*
=82	=82	=82
*ped	*	*
(>8EE-L	2.ee-)	.
8BB-	.	.
8G	.	.
8E-	.	.
8B-	.	.
8GJ	.	.
!	!LO:TX:B:t=sempre	!
4e-)	4r	.
4r	8gL	.
.	8a	.
4r	(>12b-	pp
.	12dd	.
*Xped	*	*
.	12ccJ)	.
=83	=83	=83
*ped	*	*
(>8EE-L	[2.b-	.
8BB-	.	.
8G	.	.
8E-	.	.
8B-	.	.
8GJ	.	.
4e-)	4b-]	.
4r	8gL	.
.	8a-X	.
4r	(>12b-	.
.	12dd	.
*Xped	*	*
.	12ccJ)	.
=84	=84	=84
*ped	*	*
(>8EE-L	[2.b-	.
8BB-	.	.
8A-X	.	.
8F	.	.
8B-	.	.
8A-J	.	.
4d)	4b-]	.
4r	8fL\	.
.	8a-X	.
4r	(>12b-	.
.	12dd	.
*Xped	*	*
.	12ccJ)	.
!!LO:LB:g=original
=85	=85	=85
*	*^	*
*ped	*	*	*
(>8EE-L\	[4b-	4ryy	.
8BB-J	.	.	.
4G)	(<12b-L]	12ryy	.
.	12d-X	6d-X	.
.	12e-J	.	.
4r	12gL	4ryy	.
*Xped	*	*	*
.	12cc	.	.
.	12b-J)	.	.
*ped	*	*	*
(>8EE-L\	[4a-X	4ryy	.
8C-XJ	.	.	.
4A-y)	(<8a-L]	8ryy	.
.	8c-X	4c-X^	.
4r	8e-	.	.
.	8fJ	8ryy	.
*Xped	*	*	*
.	.	.	.
*	*v	*v	*
=86	=86	=86
*ped	*	*
(>8EE-L	2g)	.
8BB-	.	.
8G	.	.
8E-	.	.
8B-^	4r	.
8GJ	.	.
4e-)	4r	.
4r	(<8gL/	.
.	8a-X	.
4r	12b-	.
.	12dd	.
*Xped	*	*
.	12ccJ	.
=87	=87	=87
*ped	*	*
(>8EE-L	4b-)/	.
8BB-	.	.
8G	2.bb-^	.
8E-	.	.
8B-	.	.
8GJ	.	.
4e-)	.	.
4r	12r	.
.	(>12gL\	.
.	12a-XJ	.
4r	12b-L	.
.	12dd	.
.	12ccJ)	.
!!LO:PB:g=original
=88	=88	=88
*ped	*	*
(>8EE-L	(>4b-	.
8BB-	.	.
8A-X	2.bb-^<)	.
8F	.	.
8B-	.	.
8A-J	.	.
4d)	.	.
4r	12r	.
.	(>12fL\	.
.	12a-XJ	.
4r	12b-L	.
.	12dd	.
*Xped	*	*
.	12ccJ)	.
=89	=89	=89
*	*^	*
*ped	*	*	*
(>8EE-L\	[4b-/	1ryy	.
8BB-J	.	.	.
4G)	(<12b-L]	.	.
.	12d-X	.	.
.	12e-J	.	.
4r	12gL	.	.
*Xped	*	*	*
.	12cc	.	.
.	12b-J	.	.
*ped	*	*	*
(>8EE-L\	[4a)	.	.
8C-XJ	.	.	.
4A)	(<8aL]	8ryy	.
.	8c-X	4c-X^	.
4r	8e-	.	.
*Xped	*	*	*
.	8fJ	8ryy	.
*	*v	*v	*
=90	=90	=90
*ped	*	*
(>8EE-L	[2.g)	.
8BB-	.	.
8G	.	.
8E-	.	.
8B-	.	.
8GJ	.	.
4e-)	8g]	.
.	(>8gL	.
!	!LO:TX:t=sempre:dur=2q:ext=ud:problem:tekst with extention lines	!
4r	8b-	.
.	8gg	.
*Xped	*	*
4r	8ff	.
.	8ee-J)	.
!!LO:LB:g=original
=91	=91	=91
!	!LO:TX:t=dim:dur=10q:ext=ud:problem:tekst with extention lines	!
*ped	*	*
(>8GGL	[2.dd	.
8D	.	.
8B-	.	.
8G	.	.
8d	.	.
8B-J	.	.
4g)	(>8ddL]	.
.	8b-	.
4r	8dd	.
.	8bb-	.
4r	8dd	.
*Xped	*	*
.	.	.
.	8ee-J	.
=92	=92	=92
*ped	*	*
(>8BB-L	4een	.
8F	.	.
*Xped	*	*
8d	[2ff)	.
*ped	*	*
8B-	.	.
8f	.	.
8dJ	.	.
4b-)	(>8ffL]	.
.	8dd	.
!	!LO:TX:t=rallentando:dur=8q:ext=ud:problem:tekst with extention lines	!
4r	8ff	.
.	8ddd	.
4r	8ccc	.
*Xped	*	*
.	8bb-J)	.
=93	=93	=93
*	*^	*
*ped	*	*	*
(>8DL\	(>8gg#XL	2.ryy	.
8A	8aa	.	.
*clefG2	*	*	*
8f	8fff	.	.
8d	8eeen	.	.
8a	8ddd	.	.
8fJ)	8aaJ	.	.
4ryy	8dd\	8ddL/	.
.	8ryy	8a	.
2r	2ryy	8f	.
.	.	8d	.
.	.	8en	.
*Xped	*	*	*
.	.	.	.
.	.	8qg/	.
.	.	8fJ	.
*clefF4	*	*	*
!!LO:LB:g=original
=94	=94	=94	=94
*	*	*^	*
*	*	*	*^	*
!	!	!LO:TX:a:B:t=a Tempo.	!	!	!
4rDD	2.En<)	2.ryy	2.ryy	2.ryy	.
*ped	*	*	*	*	*
(>4EEn'	.	.	.	.	pp
4EE')	.	.	.	.	.
4rDD	8r	8ryy	4ryy	4.ryy	.
!	!LO:N:vis=2	!	!	!	!
.	(>8dL	2d\	.	.	.
(>4EE'\	8en	.	4.en\	.	.
.	8g#	.	.	4g#X	.
4EE')\	8cc	.	.	.	.
*Xped	*	*	*	*	*
.	8bnJ	8ryy	8ryy	8ryy	.
*	*	*	*v	*v	*
=95	=95	=95	=95	=95
*ped	*	*	*	*
4rEE	2.a)	2.ryy	4rc	.
(>4EEn'\	.	.	4en\ 4c	.
4EE')\	.	.	4e\ 4c	.
!	!LO:TX:b:B:t=mg.	!	!	!
4r	(>2.eeny	4ra	2.e	.
(>4A' 4Eny	.	(>4a'>\	.	.
4A' 4E)	.	4a'>)\	.	.
*Xped	*	*	*	*
=96	=96	=96	=96	=96
*	*	*	*^	*
*ped	*	*	*	*	*
!	!LO:TX:b:B:t=mg.	!	!	!	!
4r	2.dd)	4rg	2.d	2.ryy	.
(>4A' 4En	.	(>4a'>\ 4f	.	.	.
4A' 4E)	.	4a'>)\ 4f	.	.	.
*Xped	*	*	*	*	*
.	.	.	.	.	.
4r	8r	8ryy	4ryy	4.ryy	.
!	!LO:N:vis=2	!	!	!	!
*ped	*	*	*	*	*
.	(>8dL	2d\	.	.	.
(>4EEny'\	8en	.	4.en\	.	.
.	8g#X	.	.	4g#X\	.
4EE')\	8cc	.	.	.	.
*Xped	*	*	*	*	*
.	8bnJ	8ryy	8ryy	8ryy	.
*	*	*	*v	*v	*
=97	=97	=97	=97	=97
*ped	*	*	*	*
4rEE	2.a)	4r	2.ryy	.
(>4EEn'\	.	(>4en'> 4c	.	.
4EE')\	.	4e'> 4c)	.	.
*Xped	*	*	*	*
.	.	.	.	.
*ped	*	*	*	*
4rEE	(>2.f#X	4r	2.F#<	>
(>4EE'	.	(>4e'> 4c 4A	.	]
4EE')	.	4e'> 4c 4A)	.	.
*Xped	*	*	*	*
.	.	.	.	.
!!LO:LB:g=original
=98	=98	=98	=98	=98
*	*	*	*^	*
!	!LO:TX:a:t=P:brak zakończenia łuku:problem	!	!	!	!
*ped	*	*	*	*	*
4rEE	2.g#X)	4r	2.G#<	2.ryy	.
(>4EEn'	.	(>4en'> 4Bn	.	.	.
4EE')	.	4e'> 4B)	.	.	.
4r	8rd	8ryy	4ryy	4.ryy	.
!	!LO:N:vis=2	!	!	!	!
.	(>8dL	2d	.	.	.
(>4EE'\	8e	.	4.e	.	.
.	8g#X	.	.	4g#X	.
4EE')\	8cc	.	.	.	.
*Xped	*	*	*	*	*
.	8bnJ	8ryy	8ryy	8ryy	.
*	*	*	*v	*v	*
=99	=99	=99	=99	=99
*	*	*	*	*^
*ped	*	*	*	*	*
4r	(>2.a)	4r	2.ryy	.	.
(>4EEn'\	.	(>4en'>\ 4c	.	.	.
4EE')\	.	4e'>\ 4c)	.	<	.
!	!LO:TX:b:B:t=mg.	!	!	!	!
4r	2.eeny	2.e	4ryy	.	.
4c' 4A 4En	.	.	4cc'>\ 4a	.	.<
4c' 4A 4E	.	.	4cc'>\ 4a	.	.
.	.	.	.	[	.
*	*	*	*	*v	*v
=100	=100	=100	=100	=100
*	*	*	*^	*
!	!LO:TX:b:B:t=mg.	!	!	!	!
4r	2.ff#X	4ra	2.f#X	2.ryy	fz
4c' 4A 4En	.	4cc'>\ 4a 4en	.	.	.
4c' 4A 4E	.	4cc'>\ 4a 4e)	.	.	.
*Xped	*	*	*	*	*
.	.	.	.	.	.
4r	8r	8ryy	4ryy	4.ryy	.
*ped	*	*	*	*	*
!	!LO:N:vis=2	!	!	!	!
.	(>8cL	2c\	.	.	pp
4EEny'\	8e	.	4.e\	.	.
.	8g#X	.	.	4g#\	.
4EE'\	8bn	.	.	.	.
.	8aJ	8ryy	8ryy	8ryy	.
*Xped	*	*	*	*	*
.	.	.	.	.	.
*	*	*	*v	*v	*
=101	=101	=101	=101	=101
*ped	*	*	*	*
4r	2.a)	4rc	2.ryy	<
4EEn'\	.	4en'>\ 4c	.	.
4EE'\	.	4e'>\ 4c	.	.
.	.	.	.	[
4r	(>2.ff#X	2.f#X	4ra	f
4c' 4A 4En	.	.	4cc'>\ 4a 4e	.
4c' 4A 4E	.	.	4cc'>\ 4a 4e	.
*Xped	*	*	*	*
.	.	.	.	.
!!LO:LB:g=original
=102	=102	=102	=102	=102
*	*	*	*	*^
*ped	*	*	*	*	*
!	!LO:TX:t=cres_:problem:dynamics with extention lines	!	!	!	!
!	!	!	!	!	!LO:HP:b:B:t=cres
4r	2.gg#X	4rdd	2.g#X\	.	<
!	!	!	!	!LO:HP:a	!
.	.	.	.	>	.
4c 4A 4En	.	4dd#X 4cc 4a	.	.	.
4c 4A 4E	.	4dd# 4cc 4a	.	.	.
*Xped	*	*	*	*	*
.	.	.	.	.	.
*ped	*	*	*	*	*
4r	2ff#X	4ra	2f#X\	]	.
4c 4A 4E	.	4dd# 4cc 4a	.	.	.
4r	8rff	4ryy	8re	.	.
*Xped	*	*	*	*	*
.	8gg#X)	.	8g#X\	.	.
=103	=103	=103	=103	=103	=103
*	*	*	*	*^	*
*ped	*	*	*	*	*	*
4r	(>2.gg#X	4r	2.g#X\	.	.	.
!	!	!	!	!LO:HP:a	!	!
.	.	.	.	>	>	.
4c 4A 4En	.	4dd#X 4cc 4a	.	.	.	.
*Xped	*	*	*	*	*	*
4c 4A 4E	.	4dd# 4cc 4a	.	.	]	.
.	.	.	.	]	.	.
*ped	*	*	*	*	*	*
4r	2ff#X)	4ra	2f#X\	.	.	.
4c 4A 4E	.	4dd# 4cc 4a	.	.	.	.
4c 4A 4E	8rff	4ryy	8re	.	.	.
*Xped	*	*	*	*	*	*
!	!LO:N:vis=4	!	!	!	!	!
.	(>8gg#	.	8g#\	.	.	.
*	*	*	*	*v	*v	*
=104	=104	=104	=104	=104	=104
*ped	*	*	*	*	*
4r	2gg#X	4rcc	2g#X\	.	.
4c 4A 4En	.	4dd#X 4cc 4a	.	.	.
4c 4A 4E	4ryy	4dd# 4cc 4a	4ryy	.	.
*Xped	*	*	*	*	*
.	.	.	.	.	.
*ped	*	*	*	*	*
4r	2ff#X)	4ra	2f#y\	.	.
4c 4A 4E	.	4dd# 4cc 4a	.	.	.
4c 4A 4E	8rff	4ryy	8re	.	.
*Xped	*	*	*	*	*
.	(>8gg#	.	8g#\	.	.
=105	=105	=105	=105	=105	=105
*ped	*	*	*	*	*
4r	2.aa	4rdd	2.a\	.	.
4c 4A 4En	.	4ff#X 4dd#X 4cc	.	.	.
4c 4A 4E	.	4ff# 4dd# 4cc	.	.	.
*Xped	*	*	*	*	*
.	.	.	.	.	.
*ped	*	*	*	*	*
4r	2gg#X	4rdd	2g#X\	.	.
4c 4A 4E	.	4ff#X 4dd#X 4cc	.	<	[
4a>: 4c: 4A: 4E:	4aa)	4ff# 4dd# 4cc	4ryy	.	.
*Xped	*	*	*	*	*
.	.	.	.	[[	.
*	*	*v	*v	*	*
*	*v	*v	*	*
*	*	*v	*v
!!LO:PB:g=original
=106	=106	=106
*ped	*	*
!LO:TX:b:t=P:pedał przed nutą:problem	!	!
4EEn' 4EEEn	(>2.bbn 2.gg#X 2.een 2.dd 2.bn	ff
4d 4G#X 4En	.	.
4en 4d 4G#	.	.
4g#X 4d 4Bn	2ccc#X 2gg# 2ee 2dd	.
4e 4d 4G#	.	.
4d 4G# 4E	(>4ccc# 4gg# 4ee 4dd	.
*Xped	*	*
.	.	.
=107	=107	=107
*ped	*	*
4AA 4AAA	2.aa 2.cc#X 2.a))	.
4c#X 4En	.	.
4eny 4A	.	.
4a 4c#	(>2aaa 2ccc#X 2aa	.
4e 4A	.	.
4c# 4E	4ggg#X 4ccc# 4gg#X	.
*Xped	*	*
.	.	.
=108	=108	=108
*ped	*	*
4BBn 4BBBn	2.fff#X 2.ccc#X 2.ff#X	.
4Bn 4F#X	.	.
4d#X 4A	.	.
4f#X 4B	2ggg#X 2ddd#X 2bbny	.
4d# 4A	.	.
4B 4F#	4ggg# 4ddd# 4aa	.
*Xped	*	*
.	.	.
=109	=109	=109
*ped	*	*
4En 4EEn	2.eeen 2.gg#X 2.een)	.
4Bn 4E	.	.
4eny 4G#X	.	.
4g#X 4B	(>2eee 2ee	.
4e 4G#	.	.
4B 4E	4eee 4ee	.
*Xped	*	*
.	.	.
!!LO:LB:g=original
=110	=110	=110
*^	*^	*
*ped	*	*	*	*
!	!	!LO:TX:t=P:całe nuty zapisane na środku taktu:problem	!	!
1ryy	4F#X 4FF#X	1.aa	2eeen^ 2een	.
.	4d 4F#	.	.	.
*Xped	*	*	*	*
.	4a 4A	.	4ddd 4dd)	.
*ped	*	*	*	*
.	4BBn 4BBBn	.	(>&(>12dddL 12dd	.
.	.	.	12eee 12ee	.
.	.	.	12ddd 12dd&)	.
2d	4d 4F#	.	8ccc#X 8cc#X	.
.	.	.	8ddd 8dd	.
.	4a 4Bn	.	8fff#X 8ff#X	.
*Xped	*	*	*	*
.	.	.	8eeeJ 8ee)	.
=111	=111	=111	=111	=111
*ped	*	*	*	*
1ryy	4En 4EEn	1.gg#X	(>2ddd^ 2dd	.
.	4c#X 4E	.	.	.
.	4g#X 4G#X	.	4ccc#X 4cc#X)	.
*Xped	*	*	*	*
.	.	.	.	.
*ped	*	*	*	*
.	4AA 4AAA	.	(>12ccc#XL 12cc#X	.
.	.	.	12ddd 12dd	.
.	.	.	12ccc# 12cc#	.
2c#	4c# 4E	.	8bb#X 8b#X	.
.	.	.	8ccc# 8cc#	.
.	4g# 4A	.	8eeen 8een	.
*Xped	*	*	*	*
.	.	.	8dddJ 8dd)	.
*v	*v	*	*	*
=112	=112	=112	=112
*ped	*	*	*
4D 4DD	2ff#X\	(>4ccc#y 4cc#X	.
4Bn 4D	.	4.bbn 4.bn	.
*Xped	*	*	*
4f#X 4F#X	4ryy	.	.
.	.	8aa#X 8a#X)	.
*ped	*	*	*
4C#X 4CC#X	2.ee#X\	(>16%3bb 16%3b	.
.	.	16%3bb#X 16%3b#X	.
4c#X 4G#X	.	.	.
.	.	16%3ccc# 16%3cc#	.
4e#X 4B	.	.	.
*Xped	*	*	*
.	.	16%3gg#X 16%3g#X	.
=113	=113	=113	=113
*^	*	*	*
*	*	*^	*	*
*ped	*	*	*	*	*
4FF#X 4FFF#X	4ryy	4bbn	2ff#X^ 2cc#X	4bn\	.
4c#X	2F#X	4.aa	.	2a	.
4f#X 4A	.	.	4ryy	.	.
*Xped	*	*	*	*	*
.	.	8gg#X	.	.	.
.	.	16qqff#L	.	.	.
.	.	16qqgg#J	.	.	.
*ped	*	*	*	*	*
4BBn 4BBBn	4ryy	4ff#	4dd# 4bn 4a	2.ryy	.
4Bn	2F#	8ee#X'L	8dd#\L 8b 8a	.	<
.	.	8ff#'	8dd#\ 8b 8a	.	.
4d#X 4A	.	8gg#'	8dd#\ 8b 8a	.	.
*Xped	*	*	*	*	*
.	.	8aa'J	8dd#\J 8b 8a	.	.
.	.	.	.	.	[[
*	*	*v	*v	*	*
*	*	*v	*v	*
*v	*v	*	*
!!LO:LB:g=original
=114	=114	=114
*ped	*	*
4EEn 4EEEn	2.bn 2.g#X 2.en 2.d	.
4G#X 4BBn	.	.
4Bny 4Eny	.	.
4d 4G#	2een\ 2cc#X 2g# 2en	.
4B 4E	.	.
4G# 4BB	4ee\ 4cc# 4g# 4e 4d	.
*Xped	*	*
.	.	.
=115	=115	=115
*ped	*	*
4AA 4AAA	4a\ 4c#X 4A)	.
4c#X 4En	4r	.
4eny 4A	(>4aa 4cc#X 4a	.
4a 4c#	2aaa 2ccc#X 2aa	.
4e 4A	.	.
4c# 4E	4ggg#X 4ccc# 4gg#X	.
*Xped	*	*
.	.	.
=116	=116	=116
*ped	*	*
4BBn 4BBBn	2.fff#X 2.ccc#X 2.ff#X	.
4Bn 4F#X	.	.
4d#X 4A	.	.
4f#y 4B	2ggg#X 2ddd#X 2bbn	.
4d# 4A	.	.
4B 4F#	4ggg# 4ddd# 4aa	.
*Xped	*	*
.	.	.
=117	=117	=117
*ped	*	*
4En 4EEn	2eeen 2gg#X 2een)	.
4Bn 4E	.	.
4en 4G#X	4r	.
*	*8va	*
4g#X 4B	[2eeeeny [2eeeny	.
4e 4G#	.	.
4B 4E	8.eeeeL] 8.eee]	.
*Xped	*	*
.	16eeeeJk 16eee	.
!!LO:LB:g=original
=118	=118	=118
*ped	*	*
4En 4EEn	4eeeen 4eeen	.
*	*X8va	*
!	!LO:TX:a:B:t=loco.	!
4A#X 4E	4r	.
4c#X 4F#X	4r	.
4en 4A#X	[2.ff#X^ [2.f#X	.
4c# 4F#	.	.
4A# 4E	.	.
*Xped	*	*
.	.	.
=119	=119	=119
*ped	*	*
4EEn 4EEEn	4ff#X] 4f#X]	.
4A#X 4En	4ff#m 4f#	.
4c#X 4F#X	(>8ee#XL 8e#X	<
*Xped	*	*
.	8ff#J 8f#	.
4en 4A#X	8gg#XL 8g#X	.
.	8aa#X 8a#X	.
4c# 4F#	8bbn 8bn	.
.	8ccc#X 8cc#X	.
4A# 4E	8ddd 8dd	.
.	8eeenJ 8een	.
=120	=120	=120
*ped	*	*
4En 4EEn	4fff#X 4ff#X)	[
4B#X 4En	4r	.
4d#X 4G#X	4r	.
4f#X 4B#	2gg#X^ 2g#X	.
4d# 4G#	.	.
*Xped	*	*
.	.	.
4B# 4E	4gg# 4g#	.
=121	=121	=121
*ped	*	*
!LO:TX:b:t=P:pedał przed nutą:problem	!	!
!	!LO:N:vis=2	!
4EEn 4EEEn	(>8g#XL	.
.	8gg#X	.
4B#X 4Eny	8aa	.
.	8gg#	.
4d#X 4G#X	(>8ff##X 8f##X)	<
.	8gg#J 8g#	.
4f#X 4B#X	8aa#XL 8a#X	.
*Xped	*	*
.	8bb#X 8b#X	.
4d# 4G#	8ccc#X 8cc#X	.
.	8ddd#X 8dd#X	.
4B# 4E	8eeen 8een	.
.	8fff#XJ 8ff#X	.
.	.	[[
!!LO:LB:g=original
=122	=122	=122
*ped	*	*
4En 4EEn	4ggg#X' 4gg#X)	.
4c#X 4E	4r	.
*Xped	*	*
4en 4G#X	4r	.
*ped	*	*
4D#X 4DD#X	(>2gg# 2g#y	.
4Bn 4D#	.	.
4d#X 4G#	4gg# 4g#	.
*Xped	*	*
.	.	.
=123	=123	=123
*ped	*	*
4C#X 4CC#X	(>4gg#XM 4g#X)	.
4G#X 4C#	8ff##XL 8f##X	<
.	8gg# 8g#	.
*Xped	*	*
4c#X 4En	8aa#X 8a#X	.
.	8bbnJ 8bn	.
*ped	*	*
4GG#X 4GGG#X	8ccc#XL 8cc#X	.
.	8ddd#X 8dd#X	.
4G# 4BBn	8eee#X 8ee#X	.
.	8fff##X 8ff##X	.
4Bn 4D#X	8ggg#y 8gg#	.
*Xped	*	*
.	8aaa#XJ 8aa#X	.
=124	=124	=124
*ped	*	*
!LO:TX:b:t=P:pedał przed nutą:problem	!	!
4EE#X 4EEE#X	4bbbn 4bbn)	[fff
4r	(>8bbbL 8ggg#X	.
.	8eee#X	.
.	.	>
4r	8ddd#X	.
.	8bbJ	.
.	.	]
2g#X: 2d#X 2Bn 2E#X	8bbL 8gg#y	.
.	8ee#y	.
.	8dd#y	.
.	8bny	.
4r	8b 8g#y	.
.	8e#yJ)	.
*	*clefF4	*
!!LO:PB:g=original
=125	=125	=125
*	*^	*
1.rF	2.ryy	(>8d#XL	.
.	.	8Bn	.
.	.	8B 8G#X	.
!	!	!LO:TX:t=P:dim. nie chce wyświetlić się na górze:problem	!
!	!	!	!LO:HP:a
.	.	8E#X	>
.	.	8D#X	.
.	.	8BBnJ	.
.	2ryy	8BL 8G#	.
.	.	8E#	.
.	.	8D#	.
.	.	8BB	.
.	4c-X	8A-X	.
.	.	8FJ)	.
*Xped	*	*	*
*	*v	*v	*
=126	=126	=126
(<4BBB-	(>8B-L	.
.	8A-X	.
4D)/	8c-X	.
.	8F	.
4r	8B-	.
!	!LO:TX:a:B:t=piu animato.	!
.	8A-J	.
(<4BBB-	8c-L	.
.	8F	.
4D)/	8B-	.
.	8A-	.
4r	8c-	.
.	8FJ	.
=127	=127	=127
(<4BBB-	8B-L	<
.	8A-X	.
4D)/	8c-X	.
.	8F	.
4r	8B-	.
.	8A-J	.
(<4BBB-	8c-L	.
.	8F	.
4D)/	8B-	.
.	8A-	.
4r	8c-	.
.	8FJ	.
=128	=128	=128
*	*	*^
(>4D^<	8B-L	.	.
!	!LO:TX:t=cresc_:problem:dynamics with extention lines	!	!
!	!	!	!LO:HP:t=cres
.	8A-X	.	<
4f)	8c-X	.	.
.	8F	.	.
4r	8B-	.	.
.	8A-J	.	.
(>4D^<	8c-L	.	.
.	8F	.	.
4f)	8B-	.	.
.	8A-	.	.
4r	8c-	.	.
.	8FJ	.	.
.	.	[	.
*	*	*v	*v
!!LO:LB:g=original
=129	=129	=129
(>4D^<	8B-L	.
.	8A-X	.
4f)	8c-X	.
.	8F	.
4r	8B-	.
.	8A-J	.
(>4D^<	8c-L	.
.	8F	.
4f)	8B-	.
.	8A-	.
4r	8c-	.
.	8FJ	[
*	*clefG2	*
=130	=130	=130
*ped	*	*
!LO:TX:b:t=P:pedał przed nutą:problem	!	!
4BBB-	4B-)	.
4r	(>8B-L	.
.	8d	.
4r	8c-X	.
*Xped	*	*
.	8dJ	.
4A-X 4F 4BB-	8c#XL	.
.	8f	.
4r	8d	.
.	8a-X	.
4r	8en	.
.	8a-J	.
=131	=131	=131
4d 4A-X 4F	8fL\	.
.	8cc-X	.
4r	8g	.
.	8cc-	.
4r	8a-X	.
.	8ddJ	.
4f 4d 4A-	8b-L	.
.	8dd	.
4r	8cc-X	.
.	8dd	.
4r	8cc#X	.
.	8ffJ	.
*clefG2	*	*
=132	=132	=132
4a-X 4f 4B-	8ddL	.
.	8aa-X	.
4r	8een	.
.	8aa-	.
4r	8ff	.
.	8ccc-XJ	.
4dd 4a- 4f	8ggL	.
.	8ccc-	.
4r	8aa-	.
.	8ddd	.
4r	8bb-	.
.	8dddJ	.
!!LO:LB:g=original
=133	=133	=133
*	*8va	*
4ff 4dd 4a-X	8ccc-XL	.
.	8ddd	.
4r	8ccc#X	.
.	8fff	.
4r	8ddd	.
.	8aaa-XJ	.
4aa-X 4ff 4b-	8eeenL	.
.	8aaa-	.
4r	8fff	.
.	8cccc-X	.
4r	8ggg	.
.	8cccc-J	.
=134	=134	=134
!	!LO:TX:a:t=P:bemol jakby wymazany:problem	!
[1.ddd [1.aa-X [1.ff	8bbb-XL	.
.	8aaa-X	.
.	8cccc-X	.
.	8fff	.
!	!LO:TX:a:t=P:kasownik jakby wymazany:problem	!
.	8bbbn	.
.	8aaa-J	.
.	8ccccnL	.
.	8fff	.
!	!LO:TX:a:t=P:krzyżyk jakby wymazany:problem	!
.	8bbb#	.
.	8aaa-	.
.	8cccc#X	.
.	8fffJ	.
=135	=135	=135
!	!LO:TX:a:t=P:problem:widoczny zarys dżwięku "dddd"	!
2.ddd] 2.aa-X] 2.ff]	8bbb-L	.
.	8aaa-X	.
.	8dddd	.
.	8fff	.
.	8bbb-	.
.	8aaa-J	.
(>2.ccc 2.aa- 2.ee-	8eeee-L	.
.	8fff	.
.	8bbb-	.
.	8aaa-	.
.	8eeeen	.
.	8fffJ	.
=136	=136	=136
*^	*	*
2.ccc 2.ee-\	4.ryy	8ffffL	.
.	.	8dddd	.
.	.	8cccc#X	.
.	1aa-	8eeeen	.
.	.	8eeee-X	.
.	.	8ccccnJ	.
4bb-X 4dd)\	.	8bbbnL	.
.	.	8dddd	.
4r	.	8cccc#X	.
.	.	8bbb-X	.
4r	.	8aaa	.
.	8ryy	8ccccnJ	.
*v	*v	*	*
!!LO:LB:g=original
=137	=137	=137
1.r	8bbbnL	.
.	8aaa-X	.
.	8ggg	.
.	8bbb-X	.
.	8aaa-	.
.	8fffJ	.
*	*X8va	*
!	!LO:TX:a:t=loco.	!
.	8dddL	.
.	8bb-	.
.	8aan	.
.	8bb-	.
.	8aa-X	.
.	8bb-J	.
=138	=138	=138
*^	*	*
*ped	*	*	*
4cc'\	4ryy	8ff#XL	.
*clefG2	*	*	*
!LO:TX:b:t=P:wyświetla się podwójny klucz:problem	!	!	!
.	.	8gg	.
(>4cc	2g 2e-	8ggg	.
.	.	8ddd	.
*Xped	*	*	*
4b-)	.	8eee-	.
.	.	8bbnJ	.
*clefF4	*	*	*
*ped	*	*	*
4ryy	4BB-'\	8cccL	.
.	.	8gg	.
*clefG2	*	*	*
2a-X 2d	(<4An	8bb-X	.
.	.	8aa-X	.
.	4B-)	8gg	.
*Xped	*	*	*
.	.	8ffnJ)	.
=139	=139	=139	=139
*ped	*	*	*
4ryy	4cc'	(>8ff#XL	.
.	.	8gg	.
(>4cc	2g 2e-	8ggg	.
.	.	8ddd	.
*Xped	*	*	*
4b-)	.	8eee-	.
.	.	8bbnJ	.
*clefF4	*	*	*
*ped	*	*	*
4ryy	4BB-'\	8cccL	.
.	.	8gg	.
*clefG2	*	*	*
2a-X 2d	(<4An	8bb-X	.
.	.	8aa-X	.
*Xped	*	*	*
.	4B-)	8gg	.
.	.	8ffnJ)	.
=140	=140	=140	=140
*ped	*	*	*
4ryy	4cc	(>8ff#XL	.
.	.	8gg	.
*clefG2	*	*	*
(>4a-	2e- 2B-	8ggg	.
.	.	8ddd	.
4g)	.	8eee-	.
*Xped	*	*	*
.	.	8bbnJ	.
*clefF4	*	*	*
*ped	*	*	*
4ryy	4AA'\	8cccL	.
.	.	8gg	.
*clefG2	*	*	*
(>4g	2c 2A-X	8bb-X	.
.	.	8aa-X	.
4f)	.	8gg	.
*Xped	*	*	*
.	.	8ffnJ	.
*clefF4	*	*	*
!!LO:LB:g=original
=141	=141	=141	=141
*	*	*^	*
*ped	*	*	*	*
4ryy	4BB-'\	4ee-	8ee-L	.
.	.	.	8aa-X	.
(>4e-	2A-X 2F	8ryy	8ff	.
.	.	4dd	8dd	.
*Xped	*	*	*	*
4d)	.	.	8aa-	.
.	.	8ryy	8ffJ	.
*ped	*	*	*	*
4ryy	4BB-'\	4cc	8ccL	.
.	.	.	8aa-	.
(>4c	2A- 2F	8ryy	8ff	.
.	.	4b-	8b-	.
4B-)	.	.	8aa-	.
*Xped	*	*	*	*
.	.	8ryy	8ffJ)	.
*	*	*v	*v	*
=142	=142	=142	=142
*ped	*	*	*
4ryy	4E-'	(>8ff#XL	.
.	.	8gg	.
*clefG2	*	*	*
(>4cc	2g 2e-	8ggg	.
.	.	8ddd	.
4b-)	.	8eee-	.
*Xped	*	*	*
.	.	8bbnJ	.
*clefF4	*	*	*
*ped	*	*	*
4ryy	4BB-\	8cccL	.
.	.	8gg	.
*Xped	*	*	*
*clefG2	*	*	*
2a-X 2d	(<4An	8bb-X	.
.	.	8aa-X	.
.	4B-)	8gg	.
.	.	8ffnJ)	.
*clefF4	*	*	*
=143	=143	=143	=143
*ped	*	*	*
4ryy	4E-	(>8ff#XL	.
.	.	8gg	.
*clefG2	*	*	*
(>4cc	2g 2e-	8ggg	.
.	.	8ddd	.
*Xped	*	*	*
4b-)	.	8eee-	.
.	.	8bbnJ	.
*clefF4	*	*	*
*ped	*	*	*
4ryy	4BB-\	8cccL	.
.	.	8gg	.
*Xped	*	*	*
*clefG2	*	*	*
2a-X 2d	(<4An	8bb-X	.
.	.	8aa-X	.
.	4B-)	8gg	.
.	.	8ffnJ)	.
*clefF4	*	*	*
=144	=144	=144	=144
*ped	*	*	*
4ryy	4E-'	(>8ff#XL	.
.	.	8gg	.
*clefG2	*	*	*
(>4ff	2b- 2g	8ggg	.
.	.	8ddd	.
4ee-)	.	8eee-	.
*Xped	*	*	*
.	.	8bbnJ	.
*clefF4	*	*	*
*ped	*	*	*
4ryy	4AA-X\	8cccL	.
.	.	8gg	.
*clefG2	*	*	*
(>4g	2c 2A-X	8bb-X	.
.	.	8aa-X	.
4f)	.	8gg	.
*Xped	*	*	*
.	.	8ffnJ	.
*v	*v	*	*
*clefF4	*	*
!!LO:PB:g=original
=145	=145	=145
*ped	*	*
4BB-'\	8ff-XL	.
.	8ee-	.
4r	8dd	.
.	8dd-X	.
*Xped	*	*
4d 4A-X 4F	8cc	.
.	8cc-XJ	.
4d 4A- 4F	8b-L\	.
.	8an	.
4d 4A- 4F	8ccn	.
.	8b-	.
4d 4A- 4F	8a	.
.	8a-XJ)	.
=146	=146	=146
4d-X 4B- 4E-	(>8gL\	.
.	.	<
.	8a-X	.
8r	8an	.
8E- 8EE-	8b-	.
4E- 4EE-	8cc	.
.	8b-J	.
4c 4A-X	8a-XL	.
.	8b-	.
4G\ 4GG	8bn	.
.	8cc	.
4G-X\ 4GG-X	8dd-X	.
.	8ccJ	.
.	.	[
=147	=147	=147
4e- 4An	8anL	.
.	.	<
.	8b-	.
8r	8bn	.
8F 8FF	8cc	.
4F 4FF	8ddn	.
.	8ccJ	.
4d 4B-	8b-XL	.
.	8cc	.
4A 4AA	8cc#X	.
.	8dd	.
4A-X 4AA-X	8ee-	.
.	8ddJ	[
=148	=148	=148
4f 4Bn	8bnL	<
.	8cc	.
8r	8cc#X	.
8G 8GG	8dd	.
4G 4GG	8ee-	.
.	8ddJ	.
4e- 4c	8ccnL	.
.	8cc#X	.
4C^ 4CC	8dd	.
.	8ee-	.
4r	8een	.
.	8ffJ	.
.	.	[
!!LO:LB:g=original
=149	=149	=149
(>4e- 4A-X	8ggL	>
.	8ff	.
4C-X^)\	8een	.
.	8ee-X	.
4r	8dd	.
.	8dd-XJ	.
(>4d 4A-X	8ccL\	.
.	8bn	.
4BB-^)\	8b-X	.
.	8an	.
4r	8b-	.
.	8a-XJ	]
=150	=150	=150
*	*^	*
4E-\ 4EE-	(>4g)	2.ryy	.
4G\ 4GG	8B-L	.	.
.	8b-	.	.
4A-X 4AA-X	8d	.	.
.	8cc-XJ	.	.
4G\ 4GG	8B-L	4ryy	.
.	8b-	.	.
!	!LO:TX:t=cres_:problem:dynamics with extention lines	!	!
!	!	!	!LO:HP:B:t=cres
4E-\ 4EE-	8e-	4e-	<
.	8g	.	.
4B- 4BB-	8en	4en	.
.	8dd-XJ	.	.
=151	=151	=151	=151
4An 4AAn	8cL	4ryy	.
.	8cc	.	.
4F\ 4FF	8f	4f	.
.	8any	.	.
4B- 4BB-	8en	4en	.
.	8dd-XJ	.	.
4A 4AA	8cL	4ryy	.
.	8cc	.	.
4F\ 4FF	8f	4f	.
.	8a	.	.
4c 4C	8f#X	4f#X	.
.	8ee-XJ	.	.
=152	=152	=152	=152
4Bn 4BBn	8dL	4ryy	.
.	8dd	.	.
4G\ 4GG	8g	4g	.
.	8bn	.	.
4c 4C	8f#X	4f#X	.
.	8ee-J	.	.
4B 4BB	8dL	4ryy	.
.	8dd	.	.
4G\ 4GG	8g	4g	.
.	8b	.	.
4d 4D	8g#X	4g#X	.
.	8ffJ	.	.
!!LO:LB:g=original
=153	=153	=153	=153
4c#X 4C#X	4ryy	8enL	.
.	.	8een	.
4A 4AA	4a	8a	.
.	.	8cc#X	.
4en 4En	4a#X	8a#X	.
.	.	8ggJ	.
4d#X 4D#X	4ryy	8f#XL	.
.	.	8ff#X	.
4Bn 4BBn	4bn	8bn	.
.	.	8dd#X	.
4dn 4Dn	4b#X	8b#X	.
.	.	[>8aaJ)	[
*	*v	*v	*
=154	=154	=154
*ped	*	*
4C#X 4CC#X	4ccc#X 4aa] 4ff#X 4cc#X	ff
*clefG2	*	*
8r	(>8b#XL	<
(<8a 8f#X 8c#X 8A	8cc#	.
4a' 4f# 4c# 4A	8dd#X	.
.	8ee#XJ	.
4a' 4f# 4c# 4A	8ff#L	.
.	8gg#X	.
4a' 4f# 4c# 4A	8aa	.
.	8bbn	.
4a' 4f# 4c# 4A)	8ccc#	.
.	8ddd#yJ	.
.	.	[
=155	=155	=155
2.a 2.f#X 2.c#X 2.A	8eee#XL	>
.	8fff#X	.
.	.	]
.	8ggg#X	.
.	8aaa	.
.	8fff#	.
.	8ccc#XJ	.
4r	8aaL	.
.	8ff#y	.
4r	8cc#y	.
.	8a	.
*Xped	*	*
!LO:CL:ed	!	!
*clefF4	*	*
4C#X 4CC#X	8f#y	.
.	8c#yJ)	.
*clefF4	*	*
=156	=156	=156
*ped	*	*
4BB#X 4BBB#X	(>8AL	<
.	8f#X	.
8r	8e-	.
(>8d#X 8A 8F#X	8a	.
4d# 4A 4F#	8a	.
.	8ff#yJ	.
4d# 4A 4F#)	8ee-L	.
.	8aa	.
4r	8aa	.
.	8fff#X	.
4C 4CC	8eee-	.
*Xped	*	*
.	8aaaJ	.
.	.	[
!!LO:LB:g=original
=157	=157	=157
*ped	*	*
4C-X 4CC-X	8fff#XL	>
.	8aaa	.
8rBB	8eee-	.
(>8e- 8A 8G-X	8aa	.
4e- 4A 4G-	8ff#X	.
.	8aaJ	.
.	.	]
4e- 4A 4G-)	8ee-L\	.
.	8a	.
4r	8f#X	.
.	8a	.
(<4C-X 4CC-X	8e-	.
*Xped	*	*
.	8AJ)	.
=158	=158	=158
4BB- 4BBB-)	4b- 4g 4e- 4B-	fz
!	!LO:TX:a:B:t=leggieramente.	!
.	.	p
4r	(>8AL	<
.	8B-	.
4r	8c	.
.	8dJ	.
4r	8e-L	.
.	8en	.
4e- 4c 4A	8g	.
.	8f	.
4d 4B- 4A-X	8g	.
.	8fJ	.
=159	=159	=159
4e- 4B- 4G	8ccL	.
.	8b-	.
4r	8a	.
.	8b-	.
4r	8cc	.
.	8ddJ	.
*clefG2	*	*
4r	8ee-L	.
.	8een	.
(>4ee- 4cc 4a	8gg	.
.	8ff	.
4dd 4b- 4a-X	8gg	.
.	8ffJ	.
=160	=160	=160
4ee- 4b- 4g)	8cccL	.
.	8bb-	.
4r	8aa	.
.	8bb-	.
4r	8ccc	.
.	8dddJ	.
4r	8eee-L	.
.	8eeen	.
(>4eee- 4ccc 4aa	8ggg	.
.	8fff	.
4ddd 4bb- 4aa-X	8ggg	[
.	8fffJ	.
!!LO:LB:g=original
=161	=161	=161
4eee- 4bb- 4gg)	4bbb-`)	.
4r	(>8aanL	.
.	8bb-	.
4r	8ccc	.
.	8dddJ	.
4r	8eee-L	.
.	8eeen	.
(>4eee- 4ccc 4aa	8ggg	.
.	8fff	.
4ddd 4bb- 4aa-X	8ggg	.
.	8fffJ	.
=162	=162	=162
4eee- 4bb- 4gg)	4bbb-`)	.
4r	4r	.
4r	4r	.
.	8qff/	.
*ped	*	*
*	*8va	*
4an 4f 4e- 4c	(>8ffffL	ff>
.	8eeeen	.
4r	8eeee-X	.
.	8dddd	.
4r	8cccc	[
.	8bbb-J	.
.	.	]
=163	=163	=163
1.rdd	8aaaL	.
.	8ggg	.
.	8fff	.
.	8eeen	.
.	8eee-X	.
*Xped	*	*
.	8dddJ	.
*	*X8va	*
!	!LO:TX:a:B:t=loco.	!
.	8cccL	.
.	8bb-	.
.	8aa	.
.	8gg	.
.	8ff	.
.	8eenJ	.
*clefF4	*	*
!!LO:PB:g=original
=164	=164	=164
*ped	*	*
4e- 4A-X 4E- 4C-X	8ee-XL	.
.	8dd-X	.
4r	8cc-X	.
.	8b-	.
4r	8a	.
*Xped	*	*
.	8g-XJ	.
!!mixed beam:problem
4ryy	8fL\	.
.	8e-\	.
2r	8d-y\	.
.	8c-y\	.
.	8B-\	.
.	8A-y<J/	.
=165	=165	=165
4CC-X^<	8G-<XL	.
.	8F<	.
4rCC	8E-<	.
.	8D-X<	.
4rCC	8C-X<	.
.	8BB-<J	.
4ryy	8AA<L	.
.	8GG-y<	.
!LO:N:vis=1	!	!
2rBBB	8FF<	.
.	8EE-<	.
.	8DD-y<	.
.	8CC-y<J)	.
=166	=166	=166
*	*	*^
!LO:TX:b:t=P:fz przed nutą:problem	!	!	!
!	!	!LO:DY:b=2	!
(>8BBB-L\	4ryy	fz	ff
*	*	*v	*v
8FF	.	.
8BB-	2r	.
8D	.	.
8BB-	.	.
8FFJ	.	.
8BBB-L\	(>2g^ 2d 2B-	.
8FF	.	.
8BB-	.	.
8F	.	.
8BB-	4g 4d 4A-X	.
8FFJ)	.	.
!!LO:LB:g=original
=167	=167	=167
!	!LO:TX:a:t=P:brak zakończenia łuku:problem	!
*ped	*	*
(>8EE-L\	4e- 4G)	.
8BB-	.	.
8E-	4r	.
8G	.	.
8E-	(>2.ee-^<\ 2.g 2.e-	.
8BB-J)	.	.
(>8EE-L\	.	.
8C	.	.
8E-	.	.
8B-	.	.
8E-	4dd\ 4b- 4e-	.
8CJ)	.	.
*Xped	*	*
.	.	.
=168	=168	=168
*ped	*	*
(>8FFL	2.cc\ 2.b- 2.e-	.
8C	.	.
8E-	.	.
8B-	.	.
8E-	.	.
*Xped	*	*
8CJ)	.	.
*ped	*	*
(>8FFL\	2dd\ 2a 2f	.
8C	.	.
8E-	.	.
8A	.	.
8E-	4dd\ 4a 4e-	.
*Xped	*	*
8CJ)	.	.
=169	=169	=169
*ped	*	*
(>8BB-L	4b-\ 4d)	.
8F	.	.
8B-	4r	.
8d	.	.
8B-	4r	.
8FJ)	.	.
(>8BB-L	(>2bb- 2b-	.
8F	.	.
8B-	.	.
8f	.	.
8B-	4bbn 4bn	.
8FJ)	.	.
*Xped	*	*
.	.	.
!!LO:LB:g=original
=170	=170	=170
*ped	*	*
(>8BB-L	20%3ccc 20%3cc	<
!	!	!LO:DY:a
8G	.	.
.	20%3ddd-X 20%3bb-	.
8c	.	.
.	20%3ccc 20%3een	.
8en	.	.
.	20%3bb-X 20%3bbn	.
8c	.	.
*Xped	*	*
.	20%3ccc 20%3ee)	.
8GJ)	.	.
.	8qccc 8qaa-X/	.
*ped	*	*
(>8BB-L	4aaa-X' 4aa-	.
.	.	[
8A-X	.	.
8c	4r	.
8f	.	.
8c	8r	.
*Xped	*	*
8A-J)	(>8ccc 8ee	.
=171	=171	=171
*ped	*	*
(>8BB-L	20%3bb- 20%3dd	<
!	!	!LO:DY:a
8F	.	.
.	20%3ccc 20%3aa-X	.
8A-X	.	.
.	20%3bb- 20%3dd	.
8d	.	.
.	20%3aan 20%3aa-X 20%3dd	.
8A-	.	.
*Xped	*	*
.	20%3bb- 20%3dd)	.
8FJ)	.	[
.	8qbb- 8qgg/	.
*ped	*	*
(>8BB-L	4ggg' 4gg	.
8E-	.	.
8G	4r	.
8e-	.	.
8G	8r	.
*Xped	*	*
8E-J)	(>8bb- 8dd	.
=172	=172	=172
*ped	*	*
(>8BB-L	20%3aa-X 20%3cc	.
!	!	!LO:DY:a
8E-	.	.
.	20%3bb- 20%3ee-	.
8A-X	.	.
.	20%3aa- 20%3cc	.
8c	.	.
.	20%3gg 20%3ee-	.
8A-	.	.
*Xped	*	*
.	20%3aa- 20%3cc)	<
8E-J)	.	.
.	8qaa- 8qff/	.
*ped	*	*
(>8BB-L	4fff' 4ff	.
.	.	[
8F	.	.
8A-	4r	.
8d	.	.
8A-	(>4aa- 4ff	.
8FJ)	.	.
*Xped	*	*
.	.	.
!!LO:LB:g=original
=173	=173	=173
*ped	*	*
(>8BBnL	4gg 4ff	.
8F	.	.
.	8qbb-/	.
8G	4.aa-X^< 4.ff	.
8d	.	.
8G	.	.
*Xped	*	*
8FJ)	8gg 8ff)	.
*ped	*	*
(>8CL	(>4gg' 4ee-	<
8E-	.	.
8G	4aa-' 4ee-	.
8e-	.	.
8G-X	4aan' 4ee-	.
*Xped	*	*
.	.	.
8E-J)	.	[
=174	=174	=174
*ped	*	*
(>8DL	2bb- 2ff 2b- 2a-X	.
8A-X	.	.
8B-	.	.
8f	.	.
8B-	4ryy	.
*Xped	*	*
8A-J)	.	.
*ped	*	*
(>8BB-L	2bb- 2gg 2dd 2b- 2a-	.
8F	.	.
8B-	.	.
8d	.	.
8B-	4bb- 4gg 4dd 4b- 4a-	.
*Xped	*	*
8FJ)	.	.
=175	=175	=175
*ped	*	*
(>8EE-L	4ee- 4g)	.
8BB-	.	.
8E-	4r	.
8G	.	.
8B-	4r	.
8e-J	.	.
8gL	(>2eee-^< 2gg 2ee-	.
8e-	.	.
8B-	.	.
8G	.	.
8E-	4ddd 4bb- 4ee-	.
8BB-J)	.	.
*Xped	*	*
.	.	.
!!LO:LB:g=original
=176	=176	=176
*ped	*	*
(>8FFL	2.ccc 2.bb- 2.ee-	.
8C	.	.
8E-	.	.
8B-	.	.
8E-	.	.
*Xped	*	*
8CJ)	.	.
*ped	*	*
(>8FFL\	2ddd 2aa 2ff	.
8C	.	.
8E-	.	.
8A	.	.
8E-	4ddd 4aa 4ee-	.
*Xped	*	*
.	.	.
8CJ)	.	.
=177	=177	=177
*ped	*	*
!LO:TX:b:t=P:pedał przed nutą:problem	!	!
(>8BBB-L	4bb- 4dd)	.
8BB-	.	.
8F	4r	.
8B-	.	.
8d	4r	.
8fJ	.	.
*clefG2	*	*
8ddL	(>2bbb-^< 2bb-	.
8b-	.	.
8f	.	.
8d	.	.
*clefF4	*	*
8B-	8r	.
*Xped	*	*
8FJ)	8bbb- 8bb-	.
=178	=178	=178
*	*^	*
*ped	*	*	*
8BB-L	2bbb- 2bb-)	2.ryy	.
8En	.	.	.
8G	.	.	.
8c	.	.	.
8G	4r	.	.
8EJ	.	.	.
8BB-L	(>2cc^<	4c'>	.
8E	.	.	.
8G	.	4rc	.
8c	.	.	.
8G	4dd	4d'>	.
8EJ	.	.	.
*Xped	*	*	*
.	.	.	.
!!LO:PB:g=original
=179	=179	=179	=179
*	*	*^	*
*ped	*	*	*	*
(>8BB-L	4ee-T	2.ryy	4e-'>\	.
8F	.	.	.	.
8An	4dd	.	4d'>\	.
8c	.	.	.	.
8A	4ee-	.	4e-'>\	.
*Xped	*	*	*	*
8FJ)	.	.	.	.
*ped	*	*	*	*
(>8BB-L	4gg 4dd	4ryy	(<16%3g'>\	.
8F	.	.	.	.
.	.	.	16%3a-X'>\	.
8A-X	[4gg	2dd/	.	.
8d	.	.	16%3b-'>\	.
8A-	12ggL]	.	.	.
.	.	.	16%3a-'>)\	.
.	12ff	.	.	.
8FJ)	.	.	.	.
*Xped	*	*	*	*
.	12ee-J	.	.	.
*	*v	*v	*v	*
=180	=180	=180
*ped	*	*
(>8EE-L\	2ee- 2g)/	.
8BB-	.	.
8E-	.	.
8G	.	.
8E-	4r	.
8BB-J	.	.
8EE-L\	4r	.
8BB-	.	.
!	!LO:TX:a:B:t=con forza.	!
8E-	(<8gL	.
*Xped	*	*
8B-	8a-XJ	.
8E-	12b-L/	.
.	12dd	.
8BB-J	.	.
.	12ccJ	.
=181	=181	=181
!	!LO:TX:a:B:t=ten.	!
*ped	*	*
8EE-L\	2b-/)	.
8BB-	.	.
8E-	.	.
8G	.	.
8E-	4r	.
8BB-J	.	.
8EE-L\	4r	.
8BB-	.	.
8E-	(<12r	.
*Xped	*	*
.	12gL	.
8B-	.	.
.	12a-XJ	.
8E-	12b-L/	.
.	12dd	.
8BB-J	.	.
.	12ccJ)	.
!!LO:LB:g=original
=182	=182	=182
!	!LO:TX:a:B:t=ten.	!
8EE-L\	2.b-/	.
8BB-	.	.
8D	.	.
8A-X	.	.
8D	.	.
8BB-J	.	.
8EE-L\	4r	.
8BB-	.	.
8D	(<12r	.
.	12fL	.
8B-	.	.
.	12a-XJ	.
8D	12b-L/	.
.	12dd	.
8BB-J	.	.
.	12ccJ	.
=183	=183	=183
*	*^	*
*ped	*	*	*
8EE-L\	4b-)/	4ryy	.
8BB-	.	.	.
8E-	(<12r	12ryy	.
.	12d-XL	6d-X	.
8G	.	.	.
.	12e-J	.	.
8E-	12gL	4ryy	.
*Xped	*	*	*
.	12cc	.	.
8BB-J)	.	.	.
.	12b-J	.	.
*ped	*	*	*
(>8EE-L\	4.a-X)	4.ryy	.
8C-X	.	.	.
8E-	.	.	.
8A-X	(<8c-XL	4c-X	.
8E-	8e-	.	.
*Xped	*	*	*
8C-J)	8fJ	8ryy	.
*	*v	*v	*
=184	=184	=184
*ped	*	*
(>8EE-L\	4g)	.
8BB-	.	.
8E-	4r	.
8G	.	.
8E-	4r	.
8BB-J	.	.
8EE-L\	4r	.
!	!LO:TX:a:B:t=sempre forte.	!
8BB-	.	.
8E-	12r	.
.	(>12gL\	.
8B-	.	.
.	12a-XJ	.
8E-	12b-L\	.
*Xped	*	*
.	12dd	.
8BB-J	.	.
.	12ccJ)	.
!!LO:LB:g=original
=185	=185	=185
*ped	*	*
8EE-L\	8b-'	.
8BB-	8bb-'	.
8E-	4bbb-'	.
8G	.	.
8E-	4r	.
8BB-J	.	.
8EE-L\	4r	.
8BB-	.	.
8E-	(>12r	.
.	12gL\	.
8B-	.	.
.	12a-XJ	.
8E-	12b-L	.
.	12dd	.
*Xped	*	*
8BB-J)	.	.
.	12ccJ)	.
=186	=186	=186
*ped	*	*
(>8EE-L\	8b-'	.
8BB-	8bb-'	.
8D	4bbb-'	.
8A-X	.	.
8D	4r	.
8BB-J	.	.
8EE-L\	4r	.
8BB-	.	.
8D	(>12r	.
.	12fL\	.
8B-	.	.
.	12a-XJ	.
8D	12b-L	.
.	12dd	.
8BB-J	.	.
.	12ccJ)	.
=187	=187	=187
*	*^	*
8EE-L\	4b-	4ryy	.
8BB-	.	.	.
8E-	(<12r	12ryy	.
.	12d-XL	6d-X	.
8G	.	.	.
.	12e-J	.	.
8E-	12gL	4ryy	.
*Xped	*	*	*
.	12cc	.	.
8BB-J)	.	.	.
.	12b-J)	.	.
*ped	*	*	*
(>8EE-L\	4.a-X	4.ryy	.
8C-X	.	.	.
8E-	.	.	.
8A-X	(<8c-XL	4c-X	.
8E-	8e-	.	.
*Xped	*	*	*
8C-J)	8fJ)	8ryy	.
*	*v	*v	*
!!LO:LB:g=original
=188	=188	=188
*ped	*	*
(>8EE-L\	[2.g	.
8BB-	.	.
8E-	.	.
8G	.	.
8E-	.	.
8BB-J	.	.
8EE-L\	(<8gL]/	.
.	.	<
8BB-	8g	.
8E-	8b-	.
8B-	8gg	.
8E-	8ff	.
*Xped	*	*
8BB-J	8ee-J)	.
=189	=189	=189
*ped	*	*
8EE-L\	[2.b-/	.
8BB-	.	.
8E-	.	.
8G	.	.
8E-	.	.
8BB-J	.	.
8EE-L\	(<8b-L]/	.
8BB-	8g	.
8E-	8b-	.
8B-	8gg	.
8E-	8ff	.
*Xped	*	*
8BB-J)	8ee-J)	.
.	.	[
=190	=190	=190
*ped	*	*
(>8GGL	[2.dd	.
8D	.	.
8G	.	.
8B-	.	.
8d	.	.
8B-J	.	.
8gL	(>8ddL]	.
8d	8b-	.
8B-	8dd	.
8G	8bb-	.
8D	8aa	.
*Xped	*	*
8GGJ)	8ggJ	.
!!LO:LB:g=original
=191	=191	=191
*ped	*	*
!LO:TX:b:t=P:pedał przed nutą:problem	!	!
!LO:TX:a:B:t=ritenuto.	!	!
(>8GGGL	[2.dd)	.
8GG	.	.
8D	.	.
8G	.	.
8B-	.	.
8dJ	.	.
*clefG2	*	*
8b-L	(>8ddL]	.
8g	8b-	.
8d	8dd	.
*clefF4	*	*
8B-	8bb-	.
8G	8aa	.
*Xped	*	*
8DJ)	8ggJ	.
=192	=192	=192
*ped	*	*
(>8GGL\	8ddL	.
8DJ	8b-	.
4d)	8dd	.
.	8bb-	.
!	!LO:TX:B:t=dim	!
4r	8aa	.
.	8ggJ	.
*Xped	*	*
.	.	.
!	!LO:TX:B:t=rallen:dur=9q:ext=ud:problem:tekst with extention lines	!
4ryy	8ddL	.
.	8b-	.
2r	8dd	.
.	8bb-	.
.	8aa	.
.	8ggJ	.
=193	=193	=193
1.rF	8ddL	.
.	8aa	.
.	8ccc	.
.	8bb-	.
.	8gg	.
.	8ee-J	.
.	8b-L	.
.	8g	.
.	8c	.
.	8d	.
.	8f	.
.	8e-J	.
!!LO:PB:g=original
=194	=194	=194
*	*^	*
*	*	*^	*
*	*	*	*^	*
*ped	*	*	*	*	*
!	!	!LO:TX:a:B:t=meno mosso.	!	!	!
4rFF	2.D<)	2ryy	2.ryy	2.ryy	pp
(>4DD'	.	.	.	.	.
4DD')	.	4ra	.	.	.
4rFF	8r	8ryy	4ryy	4.ryy	.
!	!LO:N:vis=2	!	!	!	!
.	8cL	2c\	.	.	.
(>4DD'\	8d	.	4.d\	.	.
.	8f#X	.	.	4f#X	.
!	!LO:TX:B:t=sotto voce.	!	!	!	!
4DD')\	8b-	.	.	.	.
*Xped	*	*	*	*	*
.	8aJ	8ryy	8ryy	8ryy	.
*	*	*	*v	*v	*
=195	=195	=195	=195	=195
*ped	*	*	*	*
4rDD	2.g	4rB	2.ryy	.
4DD'\	.	4d 4B-	.	.
4DD'\	.	4d 4B-	.	.
4r	(>2.dd	4rB	2.d<	.
4G' 4D	.	(>4g'>	.	.
4G' 4D	.	4g'>)	.	.
*Xped	*	*	*	*
.	.	.	.	.
=196	=196	=196	=196	=196
*	*	*	*^	*
*ped	*	*	*	*	*
4r	2.cc)	4re	2.c<	2.ryy	.
4G' 4D	.	(>4g'>\ 4e-	.	.	.
4G' 4D	.	4g'>\ 4e-)	.	.	.
4r	8r	8ryy	4ryy	4.ryy	.
*Xped	*	*	*	*	*
.	.	.	.	.	.
!	!LO:N:vis=2	!	!	!	!
.	(<8cL	2c\	.	.	.
*ped	*	*	*	*	*
(<4DD'	8d	.	4.d	.	.
.	8f#X	.	.	4f#X	.
4DD')	8b-	.	.	.	.
*Xped	*	*	*	*	*
.	8aJ)	8ryy	8ryy	8ryy	.
*	*	*	*v	*v	*
*	*	*v	*v	*
=197	=197	=197	=197
*ped	*	*	*
4rDD	2.g^	4rA	.
4DD'\	.	(>4d'> 4B-	.
*Xped	*	*	*
4DD'\	.	4d'> 4B-)	.
*ped	*	*	*
4rDD	2.en	4rG	.
4DD'\	.	(>4c#X<' 4B-< 4G<	.
4DD'\	.	4c#<' 4B-< 4G<)	.
*Xped	*	*	*
.	.	.	.
!!LO:LB:g=original
=198	=198	=198	=198
*	*	*^	*
*	*	*	*^	*
4rDD	2.f#X	4rB	2.ryy	2.ryy	.
4DD\	.	(>4d<' 4A< 4F#X<	.	.	.
4DD\	.	4d<' 4A< 4F#<)	.	.	.
4rDD	8r	8ryy	4ryy	4.ryy	.
!	!LO:N:vis=2	!	!	!	!
.	(>8cL	2c\	.	.	.
(>4DD'\	8d	.	4.d	.	.
.	8f#	.	.	4f#	.
4DD')\	8b-	.	.	.	.
.	8aJ	8ryy	8ryy	8ryy	.
*	*	*	*v	*v	*
=199	=199	=199	=199	=199
4rDD	2.g)/	4rB	2.ryy	<
4DD'\	.	(>4d'> 4B-	.	.
4DD'\	.	4d'> 4B-)	.	.
4r	(>2.dd	4rB	2.d<	.
.	.	.	.	f
4B-' 4G 4D	.	(>4b-'> 4g	.	<
4B-' 4G 4D	.	4b-'> 4g)	.	.
=200	=200	=200	=200	=200
*	*	*	*^	*
4r	2.een)	4rf	2.en<	2.ryy	.
.	.	.	.	.	[
4B-' 4G 4D	.	(>4b-'>\ 4g	.	.	.
4B-' 4G 4D	.	4b-'>\ 4g)	.	.	.
4rFF	8r	8ryy	4ryy	4.ryy	.
!	!LO:N:vis=2	!	!	!	!
.	(>8B-L	2B-\	.	.	p<
(>4DD'\	8c#X	.	4.c#	.	.
.	8en	.	.	4en	.
4DD')\	8a	.	.	.	.
.	8gJ)	8ryy	8ryy	8ryy	.
.	.	.	.	.	[
*	*	*	*v	*v	*
=201	=201	=201	=201	=201
4rFF	2.g	4rB	2.ryy	.
4DD'\	.	(>4en'> 4c#X 4B-	.	.
4DD'\	.	4e'> 4c# 4B-)	.	.
.	.	.	.	f
4rFF	(>2.een	4re	2.en<	>
4B-' 4G 4D	.	(>4cc#X'> 4b- 4g	.	]
4B-' 4G 4D	.	4cc#'> 4b- 4g)	.	.
!!LO:LB:g=original
=202	=202	=202	=202	=202
4r	2.ff#X^<	4rg	2.f#X</	.
(>4B-' 4G 4D	.	(>4cc#X'> 4b- 4g	.	.
4B-' 4G 4D)	.	4cc#'> 4b- 4g)	.	.
4r	2een)	4rg	2en<	.
4B- 4G 4D	.	4cc# 4b- 4g	.	.
4r	8rff	4rg	8rc<	.
.	(>8ff#	.	8f#<	.
=203	=203	=203	=203	=203
!	!LO:TX:t=cres_:problem:dynamics with extention lines	!	!	!
!	!	!	!	!LO:HP:B:t=cres.
4r	2.ff#X	4rg	2.f#<^>	<
4B-' 4G 4D	.	(>4cc#X'> 4b- 4g	.	.
4B-' 4G 4D	.	4cc#'> 4b- 4g)	.	.
4r	2een)	4rg	2en<	.
4B- 4G 4D	.	4cc# 4b- 4g	.	.
4r	8rff	4rg	8rc<	.
.	(>8ff#	.	8f#<	.
=204	=204	=204	=204	=204
4r	2.ff#X^<	4rg	2.f#<	.
4B-' 4G 4D	.	(>4cc#X'> 4b- 4g	.	.
4B-' 4G 4D	.	4cc#'> 4b- 4g)	.	.
4r	2een)	4rf	2en<	.
4B- 4G 4D	.	4cc# 4b- 4g	.	.
4r	8rff	4rg	8rc<	.
.	(>8ff#	.	8f#<	[
=205	=205	=205	=205	=205
4r	2.aa^<	4r	2.a<	.
4en' 4c#X 4B-	.	(>4een'> 4cc#X 4b-	.	.
4e' 4c# 4B-	.	4ee'> 4cc# 4b-)	.	.
4r	2gg)	4r	2g<	.
4e 4c# 4B-	.	4ee 4cc# 4b-	.	.
4r	(>4aa	4r	4a<	.
*	*	*v	*v	*
*	*v	*v	*
!!LO:LB:g=original
=206	=206	=206
*ped	*	*
!LO:TX:b:t=P:pedał przed nutą:problem	!	!
!	!LO:TX:a:t=P:brak zakończenia łuku:problem	!
!	!LO:TX:a:B:t=appasionato.	!
!	!LO:TX:B:t=il piu forte possible.	!
(>4DD 4DDD	4bb- 4dd 4b-)	.
4B- 4D	8r	.
*	*8va	*
.	(>8bbb-'L 8ddd	.
4d 4G	8cccc' 8eee-	.
.	8bbb-'J 8ddd	.
4g 4B-	8aaa'L 8ccc	.
.	8ggg' 8bb-	.
4d 4G	8fff#X' 8aa	.
.	8ggg' 8bb-	.
4B- 4D)	8fffn' 8aa	.
*Xped	*	*
.	16r	.
.	16eee-'Jk 16gg	.
*	*X8va	*
=207	=207	=207
!	!LO:TX:a:B:t=loco.	!
*ped	*	*
!LO:TX:b:t=P:pedał przed nutą:problem	!	!
4DD 4DDD	8eee-'L 8gg	.
.	8ddd' 8ff#X	.
(>4c 4F#X 4D	8ccc' 8ee-	.
.	8bb-' 8dd	.
4d 4c 4F#	8aa' 8cc	.
.	8gg'J 8b-	.
*Xped	*	*
!	!LO:TX:a:B:t=poco ritenuto.	!
4f#y 4c	(>12ff#'L 12a	.
.	12ee-' 12cc	.
.	12dd'J 12cc)	.
4d 4c 4F#	(>20dd'LL 20bn	.
.	20dd' 20b-X	.
.	20dd' 20a	.
.	20dd' 20g#X	.
.	20dd'JJ 20a	.
4c 4F# 4D	16dd'LL 16b-	.
.	16dd' 16a	.
.	16dd' 16cc	.
.	16dd'JJ 16b-)	.
==208||	==208||	==208||
*M2/2	*M2/2	*
*met(c|)	*met(c|)	*
*ped	*	*
!	!LO:TX:a:B:t=Presto con fuoco.	!
!LO:TX:b:t=P:pedał przed nutą:problem	!	!
4GG 4GGG)	8dd 8g)	fz
.	8r	.
*	*8va	*
4r	(>8bbb-^<L 8ggg 8ddd	.
.	8aaJ)	.
4g 4d 4B-	8r	.
.	(>8gggL 8ddd 8bb-	.
*Xped	*	*
4BB-'	8ggg^< 8ddd 8bb-	.
.	8ff#XJ)	.
*	*X8va	*
!!LO:LB:g=original
=209	=209	=209
!	!LO:TX:a:B:t=loco.	!
*ped	*	*
4g 4d 4B-	8r	.
.	(>8dddL 8bb- 8gg	.
4D'	8ddd^< 8bb- 8gg	.
*Xped	*	*
.	.	.
.	8cc#XJ)	.
*ped	*	*
4g 4d 4B-	8r	.
.	(>8bb-L 8gg 8dd	.
4G'	8bb-^< 8gg 8dd	.
*Xped	*	*
.	8b-J)	.
=210	=210	=210
*ped	*	*
4g 4e- 4c 4A	8r	.
.	(>8cccL 8gg 8ee-	.
*Xped	*	*
4AA'	8ccc^< 8gg 8ee-	.
.	8ddJ)	.
4g 4e- 4c	(>8cc#XL	.
.	8ccn	.
4A'	8ccc^< 8gg 8ee-	.
.	8ddJ)	.
=211	=211	=211
4f#X 4d 4c	(>8cc#XL	.
.	8ccn	.
4D'	8ccc^< 8ff#X 8ee-	.
.	8ddJ)	.
4f# 4d 4c	(>8cc#XL	.
.	8ccn	.
4A'	8aa^< 8ff#X 8dd	.
.	8ccJ)	.
=212	=212	=212
*ped	*	*
4g 4d 4G	4bb- 4gg 4dd 4b-	fz
*	*8va	*
4GG'	(>8bbb-^<L 8ggg 8ddd	.
.	8aaJ)	.
4g 4d 4B-	8r	.
.	(>8gggL 8ddd 8bb-	.
4BB-'	8ggg^< 8ddd 8bb-	.
*Xped	*	*
.	8ff#XJ)	.
*	*X8va	*
!!LO:PB:g=original
=213	=213	=213
!	!LO:TX:a:t=loco.	!
*ped	*	*
4g 4d 4B-	8r	.
.	(>8dddL 8bb- 8gg	.
4D'	8ddd^< 8bb- 8gg	.
*Xped	*	*
.	.	.
.	8cc#XJ)	.
*ped	*	*
4g 4d 4B-	8r	.
.	(>8bb-L 8gg 8dd	.
4G'	8bb-^< 8gg 8dd	.
*Xped	*	*
.	8b-J)	.
=214	=214	=214
*ped	*	*
4g 4c 4A	8r	.
.	(>8cccL 8gg 8ee-	.
4AA'	8ccc^< 8gg 8ee-	.
*Xped	*	*
.	.	.
.	8ddJ)	.
4g 4e- 4c	(>8cc#XL	.
.	8ccn	.
4A'	8ccc^< 8gg 8ee-	.
.	8ddJ)	.
=215	=215	=215
4f#X 4d 4c	(>8cc#XL	.
.	8ccn	.
4D'	8ccc^< 8ff#X 8ee-	.
.	8ddJ)	.
4f# 4d 4c	(>8cc#XL	.
.	8ccn	.
4A'	8aa^< 8ff# 8dd	.
.	8ccJ)	.
=216	=216	=216
*^	*	*
*	*	*^	*
2.ryy	4g 4d 4G	4ryy	(>4bb- 4gg 4dd 4b-	.
*ped	*	*	*	*
.	2.C^>	4aa-X	8aa-XL	.
.	.	.	8aaa-XJ 8eee-	.
.	.	4ryy	8aa-L	.
.	.	.	8aa-^> 8ee-	.
4e-\ 4A-X	.	4g	8g	.
*Xped	*	*	*	*
.	.	.	8ggJ 8ee-	.
*v	*v	*	*	*
!!LO:LB:g=original
=217	=217	=217	=217
*ped	*	*	*
4D	4f#X^	8f#XL	.
.	.	8ff#y 8an	.
4d 4c 4An	4ryy	8ff#	.
*Xped	*	*	*
.	.	8fff#yJ 8aa	.
*ped	*	*	*
4GG'\	4gg	8ggL	.
.	.	8ggg 8bb-	.
4d 4B- 4G	4ryy	8gg	.
*Xped	*	*	*
.	.	.	.
.	.	8ggJ 8b-	.
=218	=218	=218	=218
*^	*	*	*
*ped	*	*	*	*
4rA	1C	4a-X)	(>8a-X^L	.
.	.	.	8aa-y 8ee-	.
2e- 2A-X	.	4aa-	8aa-	.
.	.	.	8aaa-yJ 8eee-	.
.	.	4ryy	8aa-L	.
.	.	.	8aa- 8ee-	.
4e- 4A-	.	4g	8g	.
*Xped	*	*	*	*
.	.	.	8ggJ 8ee-)	.
*v	*v	*	*	*
=219	=219	=219	=219
*ped	*	*	*
4D'	4f#X	(>8f#XL	.
.	.	8ff#y 8an	.
4d 4c 4An	4ryy	8ff#	.
*Xped	*	*	*
.	.	8fff#yJ 8aa	.
*ped	*	*	*
4GG'\	4gg	8ggL	.
.	.	8ggg 8bb-	.
4d 4B- 4G	4ryy	8gg	.
.	.	8ggJ 8b-)	.
*Xped	*	*	*
.	.	.	.
=220	=220	=220	=220
*^	*	*	*
*ped	*	*	*	*
4BBn'\	2ryy	4f	(>8fL	.
.	.	.	8ff 8a-X	.
4d 4A-X 4F	.	4ryy	8ff	.
*Xped	*	*	*	*
.	.	.	8fffJ 8aa-y	.
*ped	*	*	*	*
4ryy	2C	2ryy	8ffL	.
.	.	.	8ee- 8a-	.
4c 4A- 4E-	.	.	8e-	.
*Xped	*	*	*	*
.	.	.	8ee-J 8a-)	.
!!LO:LB:g=original
=221	=221	=221	=221	=221
4rc	2D	4d	(>8dL	.
.	.	.	8dd 8a-X	.
4Bn 4A-X 4F	.	4ryy	8dd	.
.	.	.	8dddJ 8aa-y	.
4rc	2E-	2ryy	8ddL\	.
.	.	.	8cc 8a-	.
4A-	.	.	8c	.
.	.	.	8ccJ 8a-)	.
*v	*v	*	*	*
=222	=222	=222	=222
*ped	*	*	*
4FF#X	4ryy	(>8cL	.
.	.	8cc 8e-	.
*Xped	*	*	*
4e- 4c 4F#X	4cc	8cc	.
.	.	8cccJ 8ee-	.
4d 4B- 4G	4cc	8cc^L	.
.	.	8cccJ 8ee-	.
4GG	4b-	8b-^L	.
.	.	8bb-J 8dd)	.
=223	=223	=223	=223
*^	*	*	*
*ped	*	*	*	*
4C\	2ryy	4b-	(>8b-^L	.
.	.	.	8bb- 8dd	.
4g 4e- 4A	.	4a	8a	.
*Xped	*	*	*	*
.	.	.	8aaJ 8cc	.
4rc	2D	4g	8gL	.
.	.	.	8gg 8b-	.
4d 4A	.	4f#X	8f#X	.
.	.	.	8ff#yJ 8a)	.
=224	=224	=224	=224	=224
2.ryy	4d 4B- 4G	4ryy	4gg' 4b- 4g	.
.	2.C^>	4aa-X	(>8aa-XL	.
.	.	.	8aaa-yJ 8eee-	.
.	.	4ryy	8aa-L	.
.	.	.	8aa-^ 8ee-	.
!LO:S:s=2:note:problem:note-level slur	!	!	!	!
4e- (>4A-X	.	4g	8g	.
.	.	.	8ggJ 8ee-	.
*v	*v	*	*	*
!!LO:LB:g=original
=225	=225	=225	=225
4D')	4f#X^	8f#XL	.
.	.	8ff#X 8an	.
4d 4c 4A	4ryy	8ff#	.
.	.	8fff#yJ 8aa	.
4GG'\	2ryy	8ggL	.
.	.	8ggg 8bb-	.
4d 4B- 4G	.	8gg	.
.	.	8ggJ 8b-)	.
=226	=226	=226	=226
*^	*	*	*
4rA	(>2C	4a-X^	(>8a-XL	.
.	.	.	8aa-X 8ee-	.
2.e- 2.A-X	.	4aa-	8aa-	.
.	.	.	8aaa-yJ 8eee-	.
.	4D	2ryy	8aa-L	.
.	.	.	8aa- 8ee-	.
.	4E-	.	8g	.
.	.	.	8ggJ 8cc	.
*v	*v	*	*	*
=227	=227	=227	=227
4D)	4f#X^	8f#XL	.
.	.	8ff#X 8an	.
4d 4c 4An	4ryy	8ff#	.
.	.	8fff#yJ 8aa	.
4GG'\	4gg	8ggL	.
.	.	8ggg 8bb-	.
4d 4B- 4G	4ryy	8gg	.
.	.	8ggJ 8b-)	.
*	*v	*v	*
=228	=228	=228
4BBn 4BBBn	(>8fL	.
.	8ffn 8a-X	.
4d 4A-X 4F	8ff	.
.	8fffJ 8aa-y	.
4C 4CC	8ffL	.
.	8ee- 8g	.
4c 4G 4E-	8e-	.
.	8ee-J 8g)	.
!!LO:LB:g=original
=229	=229	=229
4D 4DD	(>8dL	.
.	8dd 8f#X	.
4An 4F#X	8dd	.
.	8dddJ 8ff#y	.
4En 4EEn	8ddL\	.
.	8cc#X 8en	.
4G	8c#X	.
.	8cc#J 8e)	.
=230	=230	=230
*	*^	*
4F#X 4FF#X	4ryy	(>8cL	.
.	.	8cc 8e-X	.
4e- 4c 4F#	4cc	8cc	.
.	.	8cccJ 8ee-	.
!	!LO:TX:t=cres_:problem:dynamics with extention lines	!	!
!	!	!	!LO:HP:B:t=cres
.	.	.	<
4e- 4c 4G	4bn	8bnL	.
.	.	8bbn 8ee-	.
4G'\ 4GG	4cc	8cc	.
.	.	8cccJ 8ee-	.
=231	=231	=231	=231
4A-X' 4AA-X	4cc	8ccL	.
.	.	8ccc 8ee-	.
4g-X 4e- 4A-	4ee-	8ee-	.
.	.	8eee-XJ 8gg-X	.
4g- 4e- 4An	4dd	8ddL	.
.	.	8ddd 8gg-	.
4Any' 4AAn	4ee-	8ee-	.
.	.	8eee-J 8gg-	[
=232	=232	=232	=232
4B-' 4BB-	4ee-	8ee-L	.
.	.	8eee- 8gg-X	.
4g-X 4e- 4B-	4gg-	8gg-	.
.	.	8ggg-XJ 8bb-	.
4an 4e- 4c-X	4ff	8ffL	.
.	.	8fff 8aa-X	.
4Bn' 4BBn	4gg-	8gg-	.
.	.	8ggg-J 8bb--	.
=233	=233	=233	=233
*	*8va	*	*
4c' 4C	4ff#X	8ff#XL	.
.	.	8fff#X 8aa	.
*clefG2	*	*	*
2a^ 2f#X 2d 2c	4aa	8aa	.
.	.	8aaaJ 8ccc	.
.	4bb-	8bb-L	.
.	.	8bbb- 8ddd	.
4a 4f# 4d 4c	4ccc	8ccc	.
.	.	8ccccJ 8eee-	.
*clefF4	*	*	*
!!LO:PB:g=original
=234	=234	=234	=234
*ped	*	*	*
4B- 4BB-	4ccc	8ccc^L	.
.	.	8cccc 8eee-	.
*clefG2	*	*	*
4g 4d 4G	4bb-	8bb-	.
*Xped	*	*	*
.	.	8bbb-J 8ddd	.
*clefF4	*	*	*
*ped	*	*	*
4c 4C	4bb-	8bb-^L	.
.	.	8bbb- 8ddd	.
*clefG2	*	*	*
4g 4e- 4A	4aa	8aa	.
.	.	8aaaJ 8ccc	.
*Xped	*	*	*
.	.	.	.
*clefF4	*	*	*
=235	=235	=235	=235
*ped	*	*	*
4d 4D	4aa	8aa^L	.
.	.	8aaa 8ccc	.
*clefG2	*	*	*
4b- 4g 4d	4gg	8gg	.
*Xped	*	*	*
.	.	8gggJ 8bb-	.
*clefF4	*	*	*
*ped	*	*	*
4c 4C	4gg	8gg^L	.
.	.	8ggg 8bb-	.
*clefG2	*	*	*
4a 4f#X 4d 4c	4dd	8dd)	.
.	.	8dddJ 8ff#X	.
*Xped	*	*	*
.	.	.	.
*	*v	*v	*
*clefF4	*	*
=236	=236	=236
*ped	*	*
4B- 4BB-	8r	.
.	(>8bb-L	.
*clefG2	*	*
4g 4d 4G	8bbb- 8ddd	.
*Xped	*	*
.	8bb-J	.
*clefF4	*	*
*ped	*	*
4c 4C	8bbb-^L 8ddd-X	.
.	8bb-	.
*clefG2	*	*
4g 4e- 4A	8aaa^ 8ccc	.
*Xped	*	*
.	8aaJ	.
*clefF4	*	*
!!LO:LB:g=original
=237	=237	=237
*ped	*	*
4d' 4D	8aaa^L 8ccc	.
.	8aa	.
*clefG2	*	*
4b-^> 4g 4d	8ggg^ 8bb-	.
*Xped	*	*
.	8ggJ	.
*clefF4	*	*
*ped	*	*
4c' 4C	8ggg^L\ 8bb-	.
.	8gg	.
*clefG2	*	*
4a 4f#X 4d 4c	8ddd^ 8ff#X	.
.	8ddJ)	.
*Xped	*	*
.	.	.
*clefF4	*	*
=238	=238	=238
*ped	*	*
4B- 4BB-	8r	.
.	(>8dddL	.
4r	8dddd^< 8bbb- 8ggg	.
.	8dddJ)	.
*clefG2	*	*
(>8ddd^<L 8bb- 8gg	4r	.
8ddJ)	.	.
*	*X8va	*
!	!LO:TX:a:t=loco.	!
4r	(>8ddd^<L 8bb- 8gg	.
.	8ddJ)	.
*clefG2	*	*
=239	=239	=239
(>8dd^<L\ 8b- 8g	4r	.
8dJ)	.	.
4r	(<8dd^>L 8b- 8g	.
.	8dJ)	.
*clefF4	*	*
(>8d^<L 8B- 8G	4r	.
8DJ)	.	.
!	!LO:TX:t=P:złe wyświetlanie prawej ręki:problem	!
4rCC	(<8d<^>L 8B-< 8G<	.
*Xped	*	*
.	8D<J)	.
!!LO:LB:g=original
=240	=240	=240
(>8FF#X^<L\ 8FFF#X	4r	.
8GGJ 8GGG)	.	.
4rDD	(<8en^>L 8B-< 8G<	.
.	8D<J)	.
(>8C#X^<L\ 8CC#X	4r	.
8DJ 8DD)	.	.
4rDD	(<8e^>L 8B-< 8G<	.
.	8D<J)	.
=241	=241	=241
(>8FF#X^<L\ 8FFF#X	4r	.
8GGJ 8GGG)	.	.
4rDD	(<8en^>L 8B-< 8G<	.
.	8D<J)	.
(>8C#X^<L\ 8CC#X	4r	.
8DJ 8DD)	.	.
4rDD	(<8e^>L 8B-< 8G<	.
.	8D<J)	.
=242	=242	=242
2DD^> 2DDD	2r	.
2rAA	(>12G<^>L	.
.	12G#<X	.
.	12A<	.
.	12B-<	.
.	12Bn<	.
.	12cJ	.
!!LO:LB:g=original
=243	=243	=243
2r	&(<12c#XL	.
.	12d	.
.	12e-	.
.	12en	.
.	12f	.
.	12f#XJ&)	.
!	!	!LO:DY:a
4.en^< 4.c#X 4.B-X 4.G	&(<12gL	<
.	12g#X	.
.	12a	.
.	12b-	.
.	12bn	.
8e 8c# 8B- 8G	.	.
.	12ccnJ&)	.
.	.	[
=244	=244	=244
2f#X^< 2c#X 2B- 2G	&(>12cc#XL	.
.	12dd	.
.	12ee-	.
.	12een	.
.	12ff	.
.	12ff#XJ&)	.
!	!LO:TX:t=cres_:problem:dynamics with extention lines	!
!	!	!LO:HP:t=cres
4.en 4.c# 4.B- 4.G	&(>12ggL	<
.	12gg#X	.
.	12aa	.
.	12bb-	.
.	12bbn	.
8e 8c# 8B- 8G	.	.
.	12cccJ&)	.
=245	=245	=245
*	*8va	*
2f#X 2c#X 2B- 2G	&(>12ccc#XL	.
.	12ddd	.
.	12eee-	.
.	12eeen	.
.	12fff	.
.	12fff#XJ&)	.
2en 2c# 2B- 2G	&(>12gggL	.
.	12ggg#X	.
.	12aaa	.
.	12bbb-	.
.	12bbbn	.
.	12cccc#XJ&)	.
.	.	[
!!LO:LB:g=original
=246	=246	=246
*ped	*	*
*	*Xtuplet	*
[1g^: [1c [>1A [1D	13eeee-L	.
.	13dddd	.
.	13ffff	.
.	13eeee-	.
.	13dddd	.
.	13cccc	.
.	13bbbn	.
.	13dddd	.
.	13cccc	.
.	13bbb-X	.
.	13aaa	.
.	13ggg	.
!	!LO:TX:a:t=P:brak kreski taktowej w górnym głosie:problem	!
!	!LO:TX:a:t=P:wspólna belka przez dwa takty:problem	!
.	13fff#XJ	.
=247	=247	=247
*	*rscale:2	*
1g] 1c_ 1A_> 1D_	16aaaL	.
.	16ggg	.
.	16fff	.
.	16eee-	.
.	16ddd	.
.	16eee-	.
.	16ddd	.
.	16fffn	.
.	16eee-	.
.	16ddd	.
.	16ccc	.
*	*X8va	*
!	!LO:TX:a:t=loco.	!
.	16bbn	.
.	16ddd	.
.	16ccc	.
.	16bb-	.
.	16aaJ	.
*	*rscale:1	*
*Xped	*	*
.	.	.
!!LO:PB:g=original
=248	=248	=248
*ped	*	*
1f#X^ 1c] 1A] 1D]	17ggLL	.
.	17ff#X	.
.	17aa	.
*Xped	*	*
.	.	.
.	17gg	.
.	17ff#	.
.	17ee-	.
.	17dd	.
.	17ee-	.
.	17dd	.
.	17ffn	.
.	17ee-	.
.	17dd	.
.	17cc	.
.	17bn	.
.	17dd	.
.	17cc	.
!	!LO:TX:a:t=P:brak kreski taktowej w górnym głosie:problem	!
!	!LO:TX:a:t=P:wspólna belka przez dwa takty:problem	!
.	17b-JJ	.
=249	=249	=249
!!mixed beam:problem
1rC	22aLL\	.
.	22g	.
.	22f#X	.
.	22e-	.
.	22d	.
.	22c</	.
.	22B-<	.
.	22A<	.
.	22G<	.
.	22F#X<	.
.	22E-<	.
.	22D<	.
.	22C<	.
.	22BB-<	.
.	22AA<	.
.	22GG<	.
.	22FF#<	.
.	22EE-<	.
.	22DD<	.
.	22CC<	.
.	22BBB-<	.
.	22AAA<JJ)	.
!!LO:LB:g=original
=250	=250	=250
[1GGG^	1rdd	.
=251	=251	=251
21GGGLL]\	21r<	.
!	!	!LO:HP:a
21AAA	(>21AA<LL	<
21BBB-	21BB-<	.
21CC	21C<	.
21DD	21D<	.
21EEn	21En<	.
21FF#X	21F#<	.
21GG	21G<	.
21AA	21A<	.
21BB-	21B-<	.
21C	21c<	.
21D	21d	.
21Eny	21en	.
21F#y	21f#X	.
21G	21g	.
21A	21a	.
21B-	21b-	.
21c	21cc	.
21d>	21dd	.
21eny>	21ee	.
21f#y>JJ	21ff#JJ	.
.	.	[
=252	=252	=252
8g>	8gg`>)/	fz
4.ryy	8r	.
*ped	*	*
.	4r	.
!	!	!LO:DY:b=2
.	.	p
!	!LO:TX:a:B:t=ritenuto.	!
4.GG 4.GGG	(>4.B-< 4.G< 4.D<	.
8GG 8GGG	8B-< 8G< 8D<	.
=253	=253	=253
2GG 2GGG	2B-< 2G< 2D<)	.
*Xped	*	*
.	.	.
*	*tuplet	*
!	!	!LO:DY:b=2
12rDD	(>12rA<	f
!	!LO:TX:a:B:t=accel&colon;	!
!LO:TX:b:t=P:brak początku łuku:problem	!	!
(<12DDL	12D<L	.
12GG	12G<	.
12AA	12A<	.
12C	12c<	.
12BB-J	12B-<J	.
!!LO:LB:g=original
=254	=254	=254
8BB-)\	8B-<`>)	.
8rFF	8rA<	.
4rFF	4rA<	.
[<2GGG\	[>2BB-<^>	.
=255	=255	=255
*	*Xtuplet	*
28GGGLL]\	28BB-<LL]	.
28AAA	28C<	.
28BBB-	28D<	.
28CC	28En<	.
28DD	28F#<	.
28EEn	28G<	.
28FF#X	28A<	.
28GG	28B-<	.
28AA	28c	<
28BB-	28d	.
28C	28en	.
28D	28f#X	.
28Eny	28g	.
28F#y	28a	.
28G	28b-	.
28A	28cc	.
28B-	28dd	.
28c	28een	.
28d	28ff#X	.
*clefG2	*	*
28en	28gg	.
*	*8va	*
28f#X	28aa	.
28g	28bb-	.
28a	28ccc	.
28b-	28ddd	.
28cc	28eeen	.
28dd	28fff#X	.
28een	28ggg	.
28ff#XJJ	28aaaJJ	.
.	.	[
!!LO:LB:g=original
=256	=256	=256
8gg	8bbb-`	.
*	*X8va	*
!	!LO:TX:a:t=loco.	!
8r	8r	.
*ped	*	*
4r	4r	p
!LO:CL:ed	!	!
*clefF4	*	*
!	!LO:TX:a:B:t=ritenuto.	!
4.GG 4.GGG	(>4.d< 4.B-< 4.G< 4.D<	.
!	!LO:TX:t=P:złe wyświetlanie prawej ręki:problem	!
8GG 8GGG	8d< 8B-< 8G< 8D<	.
=257	=257	=257
2GG 2GGG	2d< 2B-< 2G< 2D<)	.
*Xped	*	*
.	.	.
*tuplet	*tuplet	*
12r	12r	.
!	!LO:TX:a:B:t=accelerando.	!
(>12DL	(<12dL	ff
12G	12g	.
12B-	12b-	.
12e-	12ee-	.
12dJ	12ddJ	.
=258	=258	=258
8d')	8dd')/	.
8r	8r	.
!	!LO:TX:B:t=poco ritenuto accele-ran-do.:dur=7h:ext:ud:problem:tekst with extention lines	!
4r	4r	.
*	*8va	*
(<8qBBB-/	(>8qeeeen/	.
6BB- 6BBB-)	6eeeeny 6eeen)	fff
(<8qBBBn/	(>8qeeee-X/	.
6BBn 6BBBny)	6eeee-y 6eee-X)	.
(<8qCC/	(>8qdddd/	.
6C 6CC)	6dddd 6ddd)	.
=259	=259	=259
(<8qCC#X/	(>8qcccc#X/	.
*Xtuplet	*Xtuplet	*
6C# 6CC#y)	6cccc#y 6ccc#X)	.
(<8qDD/	(>8qccccn/	.
6D 6DD)	6ccccny 6cccn)	.
(<8qDD#X/	(>8qbbbn/	.
6D# 6DD#y)	6bbbny 6bbn)	.
6En 6EEn	6bbb-X 6bb-X	.
6F 6FF	6aaa 6aa	.
6F#X 6FF#X	6aaa-X 6aa-X	.
*	*X8va	*
!!LO:LB:g=original
=260	=260	=260
!	!LO:TX:a:t=loco.	!
6G 6GG	6ggg 6gg	.
6F#X 6FF#X	6fff#X 6ff#X	.
6Fn 6FFn	6fffn 6ffn	.
6En 6EEn	6eeen 6een	.
6E-X 6EE-X	6eee-X 6ee-X	.
6D 6DD	6ddd 6dd	.
=261	=261	=261
6C#X 6CC#X	6ccc#X 6cc#X	.
6Cn 6CCn	6cccn 6ccn	.
6BBn 6BBBn	6bbn 6bn	.
6BB-X 6BBB-X	6bb-X 6b-X	.
6AA 6AAA	6aa 6a	.
6AA-X 6AAA-X	6aa-X 6a-X	.
=262	=262	=262
*	*ped	*
2GG 2GGG	2gg 2g	.
2r	2r	.
=263	=263	=263
*	*8va	*
1g 1d 1G	1bbb- 1ggg 1ddd 1bb-	.
*	*X8va	*
=264	=264	=264
!	!LO:TX:a:t=loco.	!
1GG; 1GGG	1G<;<	.
!	!LO:TX:a:B:t=Fin.	!
.	.	.
==	==	==
*-	*-	*-
!!title: @{OTL}; @{OPS} @{ONM} publisher: @{PPR}
!!!RDF**kern: > = above
!!!RDF**kern: < = below
!!!RDF**dynam: > = "dim.", fontstyle = "bold"
!!!RDF**dynam: < = "cres.", fontstyle = "bold"
!!!ENC: Marta Lawrence
!!!END: 2019-01-17
!!!EED: 
!!!EST: revision finished 2019-01-
!!!rism-genre: Ballade
!!!rism-key: G minor
!!!rism-opus: op.  23
!!!rism-title: Ballade in G minor op.  23
!!!rism-permalink: https://opac.rism.info/search?id=1001067400&View=rism
